X:1
T:Rhapsody in blue
T:Rhapsody in Blue
T:George Gershwin
T:© 1924 New World Music Corporation
T:© 1924 New World Music Corporation
T:© 1924 New World Music Corporation
T:© 1924 New World Music Corporation
T:© 1924 New World Music Corporation
T:© 1924 New World Music Corporation
T:© 1924 New World Music Corporation
T:© 1924 New World Music Corporation
T:© 1924 New World Music Corporation
T:© 1924 New World Music Corporation
T:© 1924 New World Music Corporation
T:© 1924 New World Music Corporation
T:© 1924 New World Music Corporation
T:© 1924 New World Music Corporation
T:© 1924 New World Music Corporation
T:© 1924 New World Music Corporation
T:© 1924 New World Music Corporation
T:© 1924 New World Music Corporation
T:© 1924 New World Music Corporation
T:© 1924 New World Music Corporation
T:© 1924 New World Music Corporation
T:© 1924 New World Music Corporation
T:© 1924 New World Music Corporation
T:© 1924 New World Music Corporation
T:© 1924 New World Music Corporation
T:© 1924 New World Music Corporation
T:© 1924 New World Music Corporation
T:© 1924 New World Music Corporation
T:© 1924 New World Music Corporation
C:George Gershwin
Z:© 1924 New World Music Corporation
%%score { 1 | 2 } { ( 3 6 7 ) | ( 4 5 8 ) }
L:1/8
Q:1/4=80
M:4/4
K:Bb
V:1 treble nm="Piano"
V:2 bass 
V:3 treble nm="Piano"
V:6 treble 
V:7 treble 
V:4 bass 
V:5 bass 
V:8 bass 
V:1
"^Molto moderato" z8 | z8 | z8 | z8 | z8 | z8 | z8 | z8 | z8 | z8 | z8 | z8 | z8 | z8 | z8 || %15
[K:Ab] z8 | z8 | z8 |[Q:1/4=90]"^Moderato assai" z8 | z8 | z8 | z8 | z8 ||[K:A] z8 | z8 | z8 | z8 | %27
 z8 | z8 ||[Q:1/4=100] z8 | z8 | z8 |[Q:1/4=90] z8 | z8 | z8 | z8 | z8[Q:1/4=20] |[Q:1/4=100] z8 | %38
 z8 | z8 | %40
"^Ossia"{/x-} [E,A,E]/ (A,/E/^E/ [CF]/)(A/=e/^e/ [cf]/)(a/=e'/^e'/!8va(! [c'f']/)(a'/=e''/^e''/ | %41
 [c''f'']/)(a'/=e'/^e'/!8va)! [c'f']/)(a/=e/^e/ [cf]/)(A/=E/^E/ [B,F]/)(D/(3(=E/F/G/)) | z8 | z8 | %44
 z8 | %45
"^Ossia"{/x-} [E,A,E]/ (A,/E/^E/ [CF]/)(A/=e/^e/ [cf]/)(a/=e'/^e'/!8va(! [c'f']/)(a'/=e''/^e''/ | %46
 [c''f'']/)(a'/=e'/^e'/!8va)! [c'f']/)(a/=e/^e/ [cf]/)(A/=E/^E/ [A,CF]/)=F/=E | z8 | z8 | z8 | z8 | %51
 z8 | z8 | z8 |[Q:1/4=110]"^Poco agitato" z8 | z8 | z8 | z8 | z8 | z8 | z8 | z8 | z8 | z8 | z8 | %65
 z8 | z8 |[Q:1/4=100] z8 | z8 | z8 | z8 ||[Q:1/4=150]"^Tempo giusto" z8 | z8 | z8 | z8[Q:1/4=130] | %75
 z8 |[Q:1/4=150] z8 | z8 | z8 |[Q:1/4=140] z8 | z8 | z8 | z8 ||[K:C] z8 | z8 | z8 | z8 | z8 | %88
 z8[Q:1/4=120][Q:1/4=125] | z8[Q:1/4=130] |[Q:1/4=150] z8 | z8 | z8 | z8 | z8 | z8 | z8 | z8 | z8 | %99
 z8 | z8 | z8 | z8 | z8 | z8[Q:1/4=130] | z8 |[Q:1/4=150] z8 | z8 | z8[Q:1/4=130] | z8 | %110
[Q:1/4=150] z8 | z8 | z8 | z8 | z8 | z8 | z8 | z8 | z8 | z8 | z8 | z8 | z8 | z8 | z8 | z8 | z8 | %127
 z8 | z8 | z8 | z8 | z8 | z8 | z8 |[Q:1/4=145] z8[Q:1/4=140] | z8[Q:1/4=135][Q:1/4=130] | z8 | z8 | %138
 z8 | z8 | z8 ||[K:G][Q:1/4=130]"^Meno mosso e poco scherzando" z8 | z8 | z8 | z8 | z8 | z8 | z8 | %148
 z8 | z8 | z8 | z8 | z8 | z8 | z8 | z8 | z8 | z8 | z8 | z8 ||[K:A] z8 | z8 | z8 | z8 | z8 | z8 | %166
 z8 | z8 | z8 | z8 | z8 | z8 | z8 | z8 | z8 | z8 | z8 | z8 | z8 | z8 | z8 | z8 | z8 || %183
[K:G][Q:1/4=140] z8 | z8 | z8 | z8 |[Q:1/4=130]"^Meno" z8 |[Q:1/4=133] z8 |[Q:1/4=138] z8 | %190
 z8[Q:1/4=142] | z8[Q:1/4=147] | z8 |[Q:1/4=150] z8 |[Q:1/4=155] z8 | z8[Q:1/4=70] | %196
[Q:1/4=160] z8 | z8 | z8 | z8 | z8 | z8 | z8 | z8 | z8 | z8 | z8 | z8 | z8 | z8 | z8 | z8 | z8 | %213
 z8 | z8 | z8 | z8 | z8 | z8 | z8 ||[K:C] z8 | z8 | z8 | z8 | z8 | z8 | z8 | z8 | z8 | z8 | z8 | %231
 z8 | z8 | z8 | z8 | z8 | z8 | z16 z4 z | z8 || z16 | z8 | z8 | z8 | z8 || %244
[K:E][M:4/4][Q:1/4=145]"^Andante moderato" z8 | z8 | z8 | z8 | z8 | z8 | z8 | z8 | z8 | z8 | z8 | %255
 z8 | z8 | z8 | z8 | z8 | z8 | z8 | z8 | z8 | z8 | z8 | z8 | z8 | z8 | z8 | z8 | z8 | z8 | z8 | %274
 z8 | z8 | z8 | z8 | z8 | z8 | z8 | z8 | z8 | z8 | z8 | z8 | z8 | z8 | z8 | z8 | z8 | z8 | z8 | %293
 z8 | z8 | z8 | z8 | z8 |[Q:1/4=150]"^Con moto" z8 | z8 | z8 | z8 | z8 | z8 | z8 | z8 | z8 | z8 | %308
 z8 | z8 | z8 | z8 | z8 | z8 | z8 | z8 | z8 | z8 | z8 | z8 | z8 | z8 | z8 | z8 || %324
[K:A][M:2/4][Q:1/4=120]"^Leggiero" z4 | z4 | z4 | z4 |:[Q:1/4=120]"^Agitato e misterioso" z4 | z4 | %330
 z4 | z4 :| z4 | z4 | z4 | z4 | z4 | z4 | z4 | z4 | z4 | z4 | z4 | z4 | z4 | z4 | z4 | z4 | z4 | %349
 z4 | z4 | z4 | z4 | z4 | z4 | z4 | z4 | z4 | z4 | z4 | z4 | z4 | z4 | z4 |: z4 | z4 | z4 | z4 :| %368
 z4 |[Q:1/4=60] z4 |[Q:1/4=110] z4 | z4 | z4 | z4 | z4 | z4 | z4 | z4 | z4 | z4 | z4 | z4 | z4 | %383
 z4 | z4 | z4 | z4 | z4 | z4 | z4 | z4 | z4 | z4 | z4 ||[K:C][Q:1/4=100]"^Molto stentando" z4 | %395
 z4 | z4 | z4 | z4 | z4 | z4 | z4 | z4 | z4 | z4 | z4 | z4 | z4 | z4 | z4 ||[K:A] z4 | z4 | z4 | %413
 z4 | z4 | z4 ||[K:C] z4 | z4 | z4 | z4 | z4 | z4 | z4 | z4 | z4 | z4 | z4 | z4 | z4 | z4 || %430
[K:Eb][Q:1/4=80]"^Grandioso" z4 | z4 | z4 | z4 | z4 | z4 | z4 | z4 | z4 | z4 | z4 | z4 | %442
 z4[Q:1/4=78] | z4[Q:1/4=76] |[Q:1/4=74] z4[Q:1/4=72][Q:1/4=70] ||[K:Bb][M:4/4][Q:1/4=140] z8 || %446
[K:Bb][Q:1/4=120]"^Molto allargando" z8[Q:1/4=130] | z8 | z8 |[Q:1/4=100] z8[Q:1/4=95][Q:1/4=90] | %450
[Q:1/4=100] z8[Q:1/4=110] | z8 |] %452
V:2
 z8 | z8 | z8 | z8 | z8 | z8 | z8 | z8 | z8 | z8 | z8 | z8 | z8 | z8 | z8 ||[K:Ab] z8 | z8 | z8 | %18
 z8 | z8 | z8 | z8 | z8 ||[K:A] z8 | z8 | z8 | z8 | z8 | z8 || z8 | z8 | z8 | z8 | z8 | z8 | z8 | %36
 z8 | z8 | z8 | z8 | %40
 C,/ (E,,/F,,/E,,/) !tenuto!=G,,!tenuto!G,, z/ (E,,/F,,/E,,/) (G,,/A,,/G,,/F,,/) | %41
 z/ (E,,/F,,/E,,/) !tenuto!=G,,!tenuto!G,, z/ (E,,/F,,/E,,/) (G,,/A,,/G,,/F,,/) | z8 | z8 | z8 | %45
 C,/ (E,,/F,,/E,,/) !tenuto!=G,,!tenuto!G,, z/ (E,,/F,,/E,,/) (G,,/A,,/G,,/F,,/) | %46
 z/ (E,,/F,,/E,,/) !tenuto!=G,,!tenuto!G,, z/ (E,,/F,,/E,,/) (G,,/A,,/G,,/F,,/) | z8 | z8 | z8 | %50
 z8 | z8 | z8 | z8 | z8 | z8 | z8 | z8 | z8 | z8 | z8 | z8 | z8 | z8 | z8 | z8 | z8 | z8 | z8 | %69
 z8 | z8 || z8 | z8 | z8 | z8 | z8 | z8 | z8 | z8 | z8 | z8 | z8 | z8 ||[K:C] z8 | z8 | z8 | z8 | %87
 z8 | z8 | z8 | z8 | z8 | z8 | z8 | z8 | z8 | z8 | z8 | z8 | z8 | z8 | z8 | z8 | z8 | z8 | z8 | %106
 z8 | z8 | z8 | z8 | z8 | z8 | z8 | z8 | z8 | z8 | z8 | z8 | z8 | z8 | z8 | z8 | z8 | z8 | z8 | %125
 z8 | z8 | z8 | z8 | z8 | z8 | z8 | z8 | z8 | z8 | z8 | z8 | z8 | z8 | z8 | z8 ||[K:G] z8 | z8 | %143
 z8 | z8 | z8 | z8 | z8 | z8 | z8 | z8 | z8 | z8 | z8 | z8 | z8 | z8 | z8 | z8 | z8 ||[K:A] z8 | %161
 z8 | z8 | z8 | z8 | z8 | z8 | z8 | z8 | z8 | z8 | z8 | z8 | z8 | z8 | z8 | z8 | z8 | z8 | z8 | %180
 z8 | z8 | z8 ||[K:G] z8 | z8 | z8 | z8 | z8 | z8 | z8 | z8 | z8 | z8 | z8 | z8 | z8 | z8 | z8 | %198
 z8 | z8 | z8 | z8 | z8 | z8 | z8 | z8 | z8 | z8 | z8 | z8 | z8 | z8 | z8 | z8 | z8 | z8 | z8 | %217
 z8 | z8 | z8 ||[K:C] z8 | z8 | z8 | z8 | z8 | z8 | z8 | z8 | z8 | z8 | z8 | z8 | z8 | z8 | z8 | %235
 z8 | z8 | z16 z4 z | z8 || z16 | z8 | z8 | z8 | z8 ||[K:E][M:4/4] z8 | z8 | z8 | z8 | z8 | z8 | %250
 z8 | z8 | z8 | z8 | z8 | z8 | z8 | z8 | z8 | z8 | z8 | z8 | z8 | z8 | z8 | z8 | z8 | z8 | z8 | %269
 z8 | z8 | z8 | z8 | z8 | z8 | z8 | z8 | z8 | z8 | z8 | z8 | z8 | z8 | z8 | z8 | z8 | z8 | z8 | %288
 z8 | z8 | z8 | z8 | z8 | z8 | z8 | z8 | z8 | z8 | z8 | z8 | z8 | z8 | z8 | z8 | z8 | z8 | z8 | %307
 z8 | z8 | z8 | z8 | z8 | z8 | z8 | z8 | z8 | z8 | z8 | z8 | z8 | z8 | z8 | z8 | z8 || %324
[K:A][M:2/4] z4 | z4 | z4 | z4 |: z4 | z4 | z4 | z4 :| z4 | z4 | z4 | z4 | z4 | z4 | z4 | z4 | z4 | %341
 z4 | z4 | z4 | z4 | z4 | z4 | z4 | z4 | z4 | z4 | z4 | z4 | z4 | z4 | z4 | z4 | z4 | z4 | z4 | %360
 z4 | z4 | z4 | z4 |: z4 | z4 | z4 | z4 :| z4 | z4 | z4 | z4 | z4 | z4 | z4 | z4 | z4 | z4 | z4 | %379
 z4 | z4 | z4 | z4 | z4 | z4 | z4 | z4 | z4 | z4 | z4 | z4 | z4 | z4 | z4 ||[K:C] z4 | z4 | z4 | %397
 z4 | z4 | z4 | z4 | z4 | z4 | z4 | z4 | z4 | z4 | z4 | z4 | z4 ||[K:A] z4 | z4 | z4 | z4 | z4 | %415
 z4 ||[K:C] z4 | z4 | z4 | z4 | z4 | z4 | z4 | z4 | z4 | z4 | z4 | z4 | z4 | z4 ||[K:Eb] z4 | z4 | %432
 z4 | z4 | z4 | z4 | z4 | z4 | z4 | z4 | z4 | z4 | z4 | z4 | z4 ||[K:Bb][M:4/4] z8 ||[K:Bb] z8 | %447
 z8 | z8 | z8 | z8 | z8 |] %452
V:3
!mf! !trill(!!fermata!TF,4- !trill)!F,2 (17:16:17(F,/8G,/8A,/8B,/8C/8D/8E/8F/8G/8A/8B/8c/8d/8e/8f/8g/8a/8) | %1
 !>!b4{_ab} (3.a._g.a (3.g.a.g | %2
 !tenuto!.f!tenuto!.e!tenuto!.d!tenuto!_d- d!tenuto!.e!tenuto!.=e!tenuto!f- | %3
!<(! f=dB/4c/4B/4A/4!>!_A-!<)!!>(! A_G=F!>)!!>!F- | F8 | %5
 z F (!trill(!!>!TGF) (!trill(!!>!TGF) (!trill(!!>!TGF) | B8 | %7
 z B (!trill(!!>!TcB) (!trill(!!>!TcB) (!trill(!TcB) | e8 | %9
 z e (!trill(!Tfe) (3!fermata!e'c'f (3^f=gb | [GB-e-]8 | [Be]8- | [Be]8- | [GBe]8 | %14
 z2 !trill(!!fermata!TE4 (10:16:10(E/8F/8G/8_A/8B/8c/8_d/8e/8f/8g/8) || %15
[K:Ab]!p! !>!a4{_ga} (3.g._f.g (3.f.g.f | %16
 !tenuto!.e!tenuto!.d!tenuto!.c(!tenuto!._c c)!tenuto!._d!tenuto!.=d!>!e- | %17
 e=cB!>!_G- G!>(!!tenuto!_F!tenuto!E!>!E!>)! | %18
!mf! z/ (f/g/f/) !tenuto!_a!tenuto!a z/ (f/g/f/) (a/b/a/g/) | %19
 z/ (f/g/f/) !tenuto!_a!tenuto!a !tenuto!a2[K:treble]!<(! (3[dd'][ee'][ff']!<)! | %20
!f! [_g_g']4 (3[_f_f'][__e__e'][ff'] (3!>![ee'][ff'][ee'] | %21
 [d_gbd'][_cdg_c'][Bdgb]!>![=Adg=a]- [Adga][cegc'][=ceg=c']!>![dgbd']- | %22
 [dgbd'][Bd_gb][_GBdg]!>![=EF_c=e]- [EFce][__E__e] [Dd]2 || %23
[K:A]!mp! z/ (f/g/f/) !tenuto!a!tenuto!a z/ (f/g/f/) (a/b/a/g/) | %24
 z/ f/g/f/ !tenuto!a!tenuto!a !tenuto!a4 | z/ (B/c/B/) !tenuto!=d!tenuto!d z/ (B/c/B/) (d/e/d/c/) | %26
 z/ (B/c/B/) !tenuto!d!tenuto!d !tenuto!d4 | z/ (E/F/E/ =G)(G/A/ _B/A/G) !tenuto!G2 | %28
 z/ (E/F/E/ ^G)(G/A/ =B/A/G) !tenuto!G2 || %29
"^a tempo"!p!"_R.H." x4 C/B,/(!>![=FG]/E/ ^D/=D/-"^ten."!>![DBe]) | %30
 x2 (!>![C_E]/_B,/A,/)(!>![E=F]/ D/=C/)(!>![_GA]/=F/ =E/_E/-"^ten."!>![E=c=f]) | %31
 z (3!>![B,D]/A,/G,/ !>![D=F]/=C/B,/!>![FG]/ E/D/!>![GB]/=G/ F/=F/-"^ten."!>![Fd=g] | %32
!f!"_L.H." z (3.[Be]/.[Be]/.[Be]/ (3.[Be]/.[Be]/.[Be]/ (3.[Be]/.[Be]/.[Be]/ [Be]/!^![B=f]!^![A=d]/- [Ad]/.[^Ge]/!^![=G=c] | %33
 z (3:2:1!/![^F=B]3/2(3:2:1!/![FB]3/2(3:2:1!/![FB]3/2 [FB]/!^![=F=c]!^![E=A]/- [EA]/.[^DB]/!^![=D=G] | %34
 z (3:2:1!/![=C=F]3/2(3:2:1!/![CF]3/2(3:2:1!/![CF]3/2 [CF]/!^![B,=G]!^![_B,=E]/- [B,E]/.[=A,F]/!^![^G,=D] | %35
!ff! !>![A,D]/!>![G,^D]!>![=G,=C]/ !>![^F,^C][I:staff +1]!>![=F,_B,]/!>![E,=B,]/- [E,B,]/!>![^D,^G,]/!>![=D,=A,] !>![D,G,]2 | %36
!pp![I:staff -1] !>![A,D]/!>![G,^D]!>![=G,=C]/ !>![^F,^C][I:staff +1]!>![=F,_B,]/!>![E,=B,]/- [E,B,]/[^D,^G,]/[=D,=A,] (!fermata![D,G,](17:8:17E,/8^F,/8G,/8A,/8"_poco rall."B,/8[I:staff -1]^C/8=D/8E/8F/8G/8!<(!A/8B/8c/8d/8e/8f/8g/8)!<)! | %37
!mf! !arpeggio!a4{=ga} (3!tenuto!g!tenuto!=f!tenuto!g (3!tenuto!f!tenuto!g!tenuto!f | %38
!<(! [Ace][^GBd]!<)!!>(![=G^Ac]!tenuto![F=A=c]-!>)!!<(! [FAc][FA=d]!<)!!>(![FA^d]!tenuto![EAe]-!>)! | %39
!<(! [EAe][EAc][CEA]!<)!!tenuto![A,_E=G]- [A,EG]!>(![=G,B,=F]=E!tenuto!E-!>)! | E8- | E8 | %42
 !arpeggio!a4{=ga} (3!tenuto!g!tenuto!=f!tenuto!g (3!tenuto!f!tenuto!g!tenuto!f | %43
!<(! [Ace][^GBd]!<)!!>(![=G^Ac]!tenuto![F=A=c]-!>)!!<(! [FAc][FA=d]!<)!!>(![FA^d]!tenuto![EAe]-!>)! | %44
!<(! [EAe][EAc][CEA]!<)!!tenuto![A,_E=G]- [A,EG]!>(![=G,B,=F]=E!tenuto!E-!>)! | E8- | E8 | %47
!p!"^tranquilo" z2 =CD E =F3 | z2 =CD E =F3 | z (A,=CD =F=GA)[DF=c]- | [DFc]8 | %51
!f! !>![=C_E=G=c]4 (3!>!_B!tenuto!_A!tenuto!B (3!>!A!tenuto!B!tenuto!A | %52
!p!{=e=f^f} .=g.=f.e!tenuto!_e- e.f.^f!tenuto!g- | g_e=c!fermata!_B- B!>(!_A=G!fermata!G!>)! | %54
[K:bass]!p! z/ (=G,/A,/G,/) !tenuto!_B,!tenuto!B, z/ (A,/=B,/A,/) (^C/^D/B,/A,/) | %55
 z/ (_B,/=C/B,/) !tenuto!_D!tenuto!D z/ (C/=D/C/) (=E/F/D/C/) | %56
!mf![I:staff +1] (3[^C,,^G,,]/[I:staff -1]^E,/[B,^D=G]/[I:staff +1] !>!c/[I:staff -1]E,/[B,DG]/[I:staff +1]!>!C/[I:staff -1] E,/[B,DG]/[I:staff +1]!>!C,/[I:staff -1]E,/ [B,DG]/[I:staff +1]!>!C/[I:staff -1]E,/[B,DG]/ z | %57
[K:treble] z/ (C/^D/C/) !tenuto!E!tenuto!E z/ (_E/=F/E/) (=G/A/F/E/) | %58
 z/ (=E/F/E/) !tenuto!=G!tenuto!G z/ (_G/_A/G/) (_B/=c/A/G/) | %59
 z/ (=G/A/G/) !tenuto!_B!tenuto!B z/ (A/=B/A/) (^c/^d/B/A/) | %60
!f![I:staff +1] (3[_B,,=F,]/[I:staff -1]=D/[^G=ce]/[I:staff +1] !>!_b/[I:staff -1]D/[Gce]/[I:staff +1]!>!_B/[I:staff -1] D/[Gce]/[I:staff +1]!>!_B,/[I:staff -1]D/ [Gce]/[I:staff +1]!>!B/[I:staff -1]D/[Gce]/ z | %61
[I:staff +1] (3_A,,/[I:staff -1]C/[F_Bd]/[I:staff +1] !>!_a/[I:staff -1]C/[FBd]/[I:staff +1]!>!_A/[I:staff -1] C/[FBd]/[I:staff +1]!>!_A,/[I:staff -1]C/ [FBd]/[I:staff +1]!>!A/[I:staff -1]C/[FBd]/ z | %62
[I:staff +1] (3F,,/[I:staff -1]^A,/[EG=c]/[I:staff +1] !>!f/[I:staff -1]A,/[EGc]/[I:staff +1]!>!F/[I:staff -1] A,/[EGc]/[I:staff +1]!>!F,/[I:staff -1]A,/ [EGc]/[I:staff +1]!>!F/[I:staff -1]A,/[EGc]/ z | %63
[I:staff +1] (3=F,,/[I:staff -1]^A,/[^DGB]/[I:staff +1] !>!=f/[I:staff -1]A,/[DGB]/[I:staff +1]!>!=F/[I:staff -1] A,/[DGB]/[I:staff +1]!>!=F,/[I:staff -1]A,/ [DGB]/[I:staff +1]!>!^F/[I:staff -1]A,/[DGB]/ z | %64
 z (3[^GB]/^F/E/ ([B=d]/A/G/)([de]/ c/B/)([=fg]/e/ ^d/=d/-)!>![d=be'] | %65
 z (3[A=c]/G/=F/ ([c_e]/_B/A/)([e=f]/ d/c/)([_ga]/f/ =e/_e/-)!>![e=c'=f'] | %66
 z (3[=Bd]/A/^G/ ([d=f]/=c/B/)([fg]/ e/d/)([gb]/=g/ ^f/=f/-)!>![fd'=g'] | %67
 z!ff! [ebe']/[ebe']/ [ebe']/[ebe']/[ebe']/[ebe']/ [ebe']/!>![=f_b=f'][=da=d']/- [dad']/[=e^g=e']/!>![=c=g=c'] | %68
 z [=B^f=b]/[Bfb]/ [Bfb]/[Bfb]/[Bfb]/[Bfb]/ [Bfb]/!>![=c=f=c'][=Ae=a]/- [Aea]/[=B^d=b]/!>![=G=d=g] | %69
 z [=F=c=f]/[Fcf]/ [Fcf]/[Fcf]/[Fcf]/[Fcf]/ [Fcf]/!>![=GB=g][=E_B=e]/- [EBe]/[FBf]/!>![=DA=d] | %70
 z/ (!>!^G/F/4=F/4E/) (!>!=B/^A/4=A/4G/)(!>!d/ c/4=c/4B/!<(!!>!^f/)(e/4^d/4 =d/)(!>!g/f/4=f/4e/)!<)! || %71
!ff! [A!courtesy!^cea]4 (3!tenuto![=GBd=g]!tenuto![=F=f]!tenuto![GBdg][I:staff +1] (3!tenuto!=F[I:staff -1]!tenuto![GBdg]!tenuto![Ff] | %72
 !>![EAce]!tenuto![EFBd]!tenuto![C^EAc]!>![=C^FA=c]- [CFAc]!>![DFBd]!>![^D=F^B^d]!>![=EA^ce]- | %73
 [EAce][CEAc][A,CEA]!>![^G,D=G]- [G,DG][=F,G,D=F][E,G,DE]!>![E,A,CE]- | %74
 [E,A,CE]/!f! (e/f/e/) !tenuto!=g!tenuto!g z/ (e/f/e/) (g/a/g/f/) | %75
 z/ (e/f/e/) !tenuto!=g!tenuto!g z/ (e/f/e/) (^g/a/(3g/f/=f/) | %76
{/e-} [Acea]4 (3!tenuto![=GBd=g]!tenuto![=F=f]!tenuto![GBdg][I:staff +1] (3!tenuto!=F[I:staff -1]!tenuto![GBdg]!tenuto![Ff] | %77
 !>![EAce]!tenuto![EFBd]!tenuto![C^EAc]!>![=C^FA=c]- [CFAc]!>![DFBd]!>![^D=F^B^d]!>![=EA^ce]- | %78
 [EAce]!tenuto![CEAc]!tenuto![A,CEA]!>![^G,D=G]- [G,DG]!tenuto![=F,G,D=F]!tenuto![E,G,DE]!>![A,CEA]- | %79
 A8 |!p! z (!>![Aa][=c=c']).[dd'] (!>![ee'] [=f=f']3) | %81
 z (!>![Aa][=c=c']).[dd']!8va(! (!>![=f=f'] [aa']3)!8va)! | %82
 z (!>![Aa][=c=c']).[dd']!8va(! [=f=f'][=g=g'][aa'][c'=c'']-!8va)! || %83
[K:C]!8va(! [c'c'']2!8va)!!<(! [CF_Ac]2 z2 [CDFc]2!<)! | %84
!f! [C_EGc]2 [c_egc']2 [!courtesy!=B,_E_A!courtesy!=B]2 [Bd_a!courtesy!=b]2 | %85
 [C=E_Bc]2 [cg_bc']2 [CF=Ac]2 [c^f_ac']2 | [C_EGc]2 [c_egc']2 [EGce]2 [egc'_e']2 | %87
 [Gc_eg]2 [gc'_e'g']2 [_Ace_a]2!8va(! [_ac'e'_a']2 | [c'=e'g'c'']2!8va)! g6 | g8 | %90
!mf!!8va(!{/=b} [cc'][ee'] !>![gg']2 !>![gg']2 !>![gg']2 | %91
 !>![gg']2{/^g'} ([aa'][g=g'] .[ff']).[ee'] !>!!tenuto![dd']2 | [cc']4!8va)! x4 | x8 | %94
!8va(!({/=b} [cc'][ee'] !>!.[gg']2) !>!.[gg']2 !>!.[gg']2 | %95
 !>![gg']2{/^g'} ([aa'][g=g'] .[ff']).[ee'] !tenuto![dd']2!8va)! | [_B_b]4 x4 | x8 | %98
 z .c.c.c .c.c!>(! !>!f2!>)! | z .c.c.c .A.A .F.F | A,4- A,!tenuto!C!tenuto!F!tenuto!A | !>!a8 | %102
!8va(! (!>![cc'][ee'] !>!.[gg']2) !>!.[gg']2 !>!.[gg']2 | %103
 (3([gg']2 [aa']2 [gg']2) (3([ff']2 [ee']2 [dd']2)!8va)! |!p! [cegc']2 x4 (5:4:5(B,/ C/E/G/c/) | %105
 (5:4:5(^D/ E/G/c/e/)!<(! (5:4:5(^F/ G/c/e/g/) (5:4:5(B/ c/e/g/c'/) (5:4:5(^d/!<)! e/g/c'/e'/) | %106
!sfz! z!f!!>(! ._b.b.b!>)! (!>!b/=a/._a).a.a | (!>!_a/=a/._b).b.b (!>!b/c'/.^c').c'.c' | %108
 [^cea^c']2 x6 | %109
 (5:4:5(^B,/ ^C/E/A/^c/)!<(! (5:4:5(^D/ E/A/c/e/) (5:4:5(^G/ A/c/e/a/) (5:4:5(^B/!<)! c/e/a/^c'/) | %110
 z .g.g.g (!>!g/^f/.=f).f.f | (!>!f/^f/.g).g.g (!>!g/a/.^a).a.a | (!>!^ab).g.e{/g} (fe)d^c | %113
 BdBG- G4 |!ff! z [cegc'][cegc'][cegc'] (!>![cegc'][_Bdf_b])[Bdfb][Bdfb] | %115
 (!>![_Bdf_b][cegc'])[cegc'][cegc'] (!>![cegc'][^d^f=b^d'])[dfbd'][dfbd'] | %116
 [^d^fb^d'][egc'e'][cegc'][Acea] [_B=d=f_b][Acea][GBdg][^D^F=B^d] | %117
 [EGce][Gceg][EGce][EGc]- [EGc]4 | z [cegc'][cegc'][cegc'] (!>![cegc'][_Bdf_b])[Bdfb][Bdfb] | %119
 (!>![_Bdf_b][cegc'])[cegc'][cegc'] (!>![cegc'][^d^f=b^d'])[dfbd'][dfbd'] | %120
 [^d^fb^d'][egc'e'][cegc'][Acea] [_B=d=f_b][Acea][GBdg][^D^F=B^d] | %121
 [EGce][Gceg][EGce][EGc]- [EGc]!>(! [egc'][egc'][egc']!>)! | %122
!p!{/^c'} [dd'][c=c'] !tenuto![ff']2{/^c'} [dd'][c=c'] !tenuto![Ff]2 | [Ff]8 | %124
{/^c'} [dd'][c=c'] !tenuto![ff']2{/^c'} [dd'][c=c'] !tenuto![Ff]2 | [Ff]8 | %126
 z [cegc'][cegc'][cegc'] (!>![cegc'][_Bdf_b])[Bdfb][Bdfb] | %127
 (!>![_B^cf_b][Acea])[Acea]!>![Acea]- [Acea][Acea][A=c_ea][Acea] | %128
 (!>![A_Bda][GBdg])[GBdg]!>![GBdg]- [GBdg][GBdg][GB_dg][GBdg] | [G=B=dg]!p! (!>!^ab)g (!>!ab)de | %130
 (3(fed){/^f} g{/f}g{/f} g_ecG | z (!>!^AB)G (!>!AB)D=E | %132
 (3(!courtesy!=FED){/^F} G{/F}G{/F} GE^CA, | !arpeggio![^Fda]8- | [Fda]4- [Fda]([^c^e][=c^f][B^d] | %135
!>(! [_B=e][A^c][_A=d]!>)![G=B] [^F=c]2)!ff! !>![cd^fd'] z | %136
 z !>![cd^fd']z!>![cdfd'] !>![cdfd'] z"^*) N.B."!sfz! z2 |!p! x8 | x6 C(!>!C/^C/ | %139
 DD) (!>!D/^D/E E)(!>!E/^E/ ^FF) | %140
 (!>!^F/G/^G G)(!>!G/A/ ^A/B/c/^c/!<(! d/^d/!<)!!>(! (3e/^e/^f/)!>)! || %141
[K:G]!p!"^(Slower)" z{/f} .g.g.g (!>!g/f/=f) .=f.f | (!>!=f/^f/g) .g.g (3((!>!g/^g/a/)^a) .a.a | %143
 (!>!^ab)ge{/g} (!>!=fe)d^A | !>!BdB!>!G- G4 | z{/f} .g.g.g (!>!g/f/=f).f.f | %146
 (!>!=f/^f/g).g.g (3((!>!g/^g/a/)^a).a.a | (!>!^ab)ge{/g} (!>!=fe)d^A | %148
 !>!BdB!>!G- G/!pp!([^Ae]/[Bd]/D/ .[GB]).[dg] | %149
!8va(!{/^g'} .[=a=a'].[g=g'] !tenuto![c'c'']2{/^g'} .[aa'].[g=g'] !tenuto![cc']2 | !^![cc']8 | %151
{/^g'} .[=a=a'].[g=g'] !tenuto![c'c'']2{/^g'} .[aa'].[g=g'] !tenuto![cc']2 | !^![cc']8!8va)! | %153
 z{/f} .g.g.g{/a} (!>!g/f/=f).f.f | (!>!=f/^f/g).g.g (3((!>!g/^g/a/)^a).a.a | %155
 (!>!^ab)ge{/g} (!>!=fe)d(!fermata!^A |!p! B)(dBG) z (dBF) | z (e_ed) (=e/_e/d-) d2 | %158
 A(e^cA) z (ec^G) | z (f=fe) (^f/=f/e-) e2 ||[K:A]!p! z .a.a.a{/b} (!>!a/g/.=g).g.g | %161
 (!>!=g/^g/a).a.a (3(!>!a/^a/b/^b).b.b | (!>!^bc')af{/a} (!>!=gf)e^B | cecA-"_R.H." A z z2 | %164
 z{/g} .a.a.a{/b} (!>!a/g/.=g).g.g | (!>!=g/^g/a).a.a (3(!>!a/^a/b/^b).b.b | %166
 (!>!^bc')af{/a} (!>!=gf)e^B | cecA- A2 !arpeggio![Aa]2 | %168
!8va(! [bb'][aa'] !tenuto![d'd'']2 [bb'][aa'] !tenuto![dd']2 | !^![dd']8 | %170
 [bb'][aa'] !tenuto![d'd'']2 [bb'][aa'] !tenuto![dd']2 | !^![dd']8!8va)! | %172
!p! z .a.a.a{/b} (!>!a/g/.=g).g.g | (!>!=g/^g/a).a.a (3(!>!a/^a/b/^b).b!8va(!.^b' | %174
 ^b'(c''a'f'{/a'} =g'f'e'^b | c'e'c'a- a) !>!^e'3- | e'(f'd'b{/d'} =c'ba^e | faf=e d) !>!^b3- | %178
 b(c'af!8va)!{/a} =gfe^B | cecA- A) !>!^e3- | e8- | efdB =cBA^E | z8 || %183
[K:G]!ff! [gbd'g']4 (3!tenuto![=f=f']!tenuto![_e_e']!tenuto![ff'] (3!tenuto![ee']!tenuto![ff']!tenuto![ee'] | %184
 [dgbd'][cc'][Bb][_Bcg_b]- [Bcgb][cc'][^cgb^c'][dg=bd']- | %185
 [dgbd'][Bdgb][GBdg][=Fc=f]- [Fcf][_Ec_e] [Dcd]2 |!>(! dBG=F- F_E D2!>)! | %187
!pp! (3((dBG) =F_E D!>!dBG | (3(=F_ED) !>!dB GFED) |!pp!!<(! (3(d'bg =f_e d!>!d'bg | %190
 (3=f_ed d'b gfed)!<)! |!f!!8va(! (3(d''b'g' =f'_e'!<(! d'!>!d''b'g' | %192
 (3=f'_e'!<)!d' !>!d''b' g'f'e'd') | (3(d''b'g' =f'_e' d'!>!d''b'g' | %194
 (3=f'_e'd' !>!d''b' g'f'e'd') | %195
 !>![=f'=f'']4 (16:3:16(_e''c''_a'=f'_e'c'_a=f!8va)!_ec_A=F_EC_A,=F,[^F,CD]) |!mf!"^*)" x8 | %197
 x4 x4 | x8 | x8 |!p!"^L.H." [B,DG] z [B,DG] z [B,DG] z [B,DG] z | %201
 [B,D=F^G] z [B,DFG] z [B,DFG] z [B,DFG] z | [A,C_EG] z [A,CEG] z [A,D^F] z [A,DF] z | %203
"^R.H." (!>!_e'2- (5:4:5e'/_d'/_b/g/_e/) =d z z2 | [B,DG] z [B,DG] z [B,DG] z [B,DG] z | %205
 [B,D=F^G] z [B,DFG] z [B,DFG] z [B,DFG] z | [A,C_EG] z [A,CEG] z [A,D^F] z [A,DF] z | %207
 [CDF] z z2 z4 | [CEG] z [CEG] z [CEG] z [CEG] z | [C_EG] z [CEG] z [CEG] z [CEG] z | %210
 [=B,DG] z [B,DG] z [B,DG] z [B,DG] z | [B,DG] z [B,DG] z [B,DG] z [B,DG] z | %212
 [CEG] z [CEG] z [CEG] z [CEG] z | [_EG] z [EG] z [EG] z [EG] z | %214
 [=B,DG] z [B,DG] z [B,DG] z [B,DG] z | %215
"^R.H."!<(! (!tenuto![A,^C]!tenuto![=CD]!tenuto![B,^D]!tenuto![=DE]-!<)!!>(! [DE]!tenuto![_D=F]!>)! !fermata![CA]2) | %216
!p! z/ !^!B,/[DG]/B,/ [DG]/B,/[DG]/B,/ [DG]/B,/[DG]/B,/ [DG]/B,/[DG]/B,/ | %217
 z/ !^!B,/[DG]/B,/ [DG]/B,/[DG]/B,/ z/ !^!B,/[DA]/B,/ [DA]/B,/[DA]/B,/ | %218
!<(! z/ !^!D/[=F_B]/D/ [FB]/D/[FB]/D/ [FB]/D/[FB]/D/ [FB]/D/[FB]/D/ | %219
 z/ !^!D/[=F=B]/D/ [FB]/D/[FB]/D/ z/ !^!D/[Fc]/D/ [Fc]/D/[Fc]/D/!<)! || %220
[K:C]!ff! [_A_df_a][_Bdf_b][dfa_d'][dfad']- [dfad'][Adfa][Bdfb][Adfa] | %221
 [_c_df_c']4 [_Bdf_b] [_Adf_a]3 | (3([_G_B_e]2 [_Acf]2 [GBe]2) [Bc_g]4 | %223
 (_a/c'/!>!_e') !>!e'!>!e' !>!e'(_g'/f'/ e'/_d'/c') | %224
 [_A_df_a][_Bdf_b][dfa_d'][dfad']- [dfad'][Adfa][Bdfb][Adfa] | [_c_df_c']4 [_Bdf_b] [_Adf_a]3 | %226
 (3([_G_B_e]2 [_Acf]2 [GBe]2) [Bc_g]4 | (_a/c'/!>!_e') !>!e'!>!e' !>!e'(_g'/f'/ e'/_d'/c') | %228
!p! z/ !^!F/[_A_d]/F/ [Ad]/F/[Ad]/F/ [Ad]/F/[Ad]/F/ [Ad]/F/[Ad]/F/ | %229
 z/ !^!F/[_A=d]/F/ [Ad]/F/[Ad]/F/ z/ !^!F/[Ad]/F/ [Ad]/F/[Ad]/F/ | %230
 z/ !^!^G/[=B=e]/G/ [Be]/G/[Be]/G/ [Be]/G/[Be]/G/ [Be]/G/[Be]/G/ | %231
 z/ !^!^G/[Bf]/G/ [Bf]/G/[Bf]/G/ z/!<(! !^!G/[B^f]/G/ [Bf]/G/[Bf]/G/!<)! | %232
!ff!!8va(! [dgbd']"^martellato"[egbe'][gbd'g'][gbd'g']- [gbd'g'][dgbd'][egbe'][dgbd'] | %233
 [fgbf']4 [egbe'] [dgbd']3 | [dgbd'][egbe'][gbd'g'][gbd'g']- [gbd'g'][dgbd'][egbe'][dgbd'] | %235
 !>![fgbf']4 [egbe'] [dgbd']3!8va)! |!fff! (3(!>![c_egc']2 !>![Begb]2 !>![cegc']2) !>![Ad^fa]4 | %237
 x4 (5:4:5(A,/^C/D/E/^E/)"_L.H." ^F/ (5:4:5(A/^c/d/=e/^e/)"^L.H." ^f/ (5:4:5(a/^c'/d'/=e'/^e'/) ^f'/!8va(! (5:4:5(a'/^c''/d''/e''/^e''/) ^f''/ (5:4:5(e''/=e''/d''/^c''/a'/) f'/ (5:4:5(a'/c''/d''/e''/^e''/) f''/ (5:4:5(e''/=e''/d''/c''/a'/) | %238
 ^f'/ (5:4:5(a'/^c''/d''/e''/^e''/) ^f''/ (5:4:5(e''/=e''/d''/c''/a'/) f'/ (5:4:5(a'/c''/d''/e''/^e''/) !fermata!f''/ || %239
 (3[c'c''][bb'][aa'] (3[=f=f'][=e=e'][dd']!8va)! (3[cc'][Bb][Aa] (3[Ff][Ee][Dd] (3[Cc][B,B][A,A] (3!>!F!>!E!>!D !fermata!D4 | %240
!pp!"^rubato e legato" [^F^A]!<(![=AB][^Gc][B^c]-!<)!!>(! [Bc][_Bd] [A^f]2!>)! | %241
!<(! [=ce][_e=f][d^f][=f=g]-!<)!!>(! [fg][=e^g] [_ec']2!>)! | %242
!8va(! [^f^a][=ab][_ac'][b^c']- [bc'][_bd'] [=a^f']2- | [af']4!pp! !arpeggio![a^f'b']4!8va)! || %244
[K:E][M:4/4]!p! ([G,B,EG]2 [A,B,FA]2 [B,EGB]2 x2 | x8 | F8-) | F8 | ^^F8- | F8 | G8- | G8 | %252
 [G,B,EG]2 [A,B,FA]2 [B,EGB]2 x2 | x8 | A8- | A8 | B8- | B8 | %258
 [C=EAc]2 [DBd]2!mf! [EAce]2 [E,A,E]2- | [E,A,E]2 [F,=CEF]2 [G,CEG]2 [A,CEA]2 | %260
 [B,EGB]2 [^CEG^c]2 [DGBd]2 [D,G,D]2- | [D,G,D]2!>(! [E,G,B,E]2 [F,B,EF]2 [G,B,EG]2!>)! | %262
!<(! z (G c2) (d2 e2)!<)! |!>(! (3(f2 c2 d2) f4!>)! |!p! z =G =c2 =d2 _e2 | %265
!<(! (3(=f2 =c2 =d2) f2 ^f2!<)! |!f! ([GBeg]2 [ABfa]2 [Begb]2 !>![B,EGB]2- | %267
 [B,EGB]2 !>![CEGc]2 !>![DGBd]2 !>![EGBe]2 | f8-) | f8 | ^^f8- | f8 | g8- | g8 | %274
 ([GBeg]2 [ABfa]2 [Begb]2 !>![B,EGB]2- | [B,EGB]2 [CEGc]2 [DGBd]2 [EGBe]2 | a8-) | a8 | b8- | b8 | %280
!ff! (!>![ceac']2 !>![dbd']2 !>![eac'e']2 !>![EAe]2- | [EAe]2 !>![F=cef]2 !>![Gceg]2 !>![Gcea]2) | %282
 (!>![Begb]2 !>![^ceg^c']2 !>![dgbd']2 !>![DGd]2- | [DGd]2!>(! [EGBe]2 [FGBf]2 [GBeg]2)!>)! | %284
!p! (g2 ^a2 =c'2 =c2- | c2 =d2 e2 f2) |"^*) N.B." (g2 a2 b2 B2- | B2 c2 d2) z [A,DG] | %288
!pp!!<(! [G,G]8 | [A,A]8 | [B,B]8 | [Cc]4 [=D=d]4 | [Ee]8 | [Ff]4!<(! [=G=g]4!<)!!<)! |!f! [Aa]8 | %295
!>(! [Bb]8 | [=c=c']8!>)! |!mp! [^c^d^c']8 |!p! (g2 a2 b2 B2- | B2 c2 !courtesy!^d2 e2) | %300
 z4 z!<(! (F[^Aef])(f | [^ae'f'])!8va(!(f'!<)![^a'e''f''])!8va)!!>(!(f [ae'f'])(F!>)! [^Aef]2) | %302
 z4!<(! z (^^F[B^^f])(f | [b^^f'])!8va(!(f'!<)!!>(![b'^^f''])!8va)!(^^f [bf'])(^^F!>)! [Bf]2) | %304
!<(! z4 z (G[Beg])(g | [be'g'])!<)!!8va(!(g'!>(![b'e''g''])!8va)!(g [be'g'])(G!>)! [Beg]2) | %306
 (g2 a2 b2 B2- | B2 c2 !courtesy!^d2 e2) | z4 z (A[ca])(a | %309
!8va(! [c'a'])(a' [c''a''])!8va)!(a [c'a'])(A [ca]2) | z4 z (B[=db])(b | %311
!8va(! [=d'b'])(b' [=d''b''])!8va)!(b [d'b'])(B [=db]2) | %312
!mf! !>![cac']2 !>![^db^d']2 !>![ec'e']2 !>![Ee]2- | %313
 [Ee]2!>(! !>![F^cef]2 !>![Gceg]2 !>![Acea]2!>)! | !>![Bdgb]2 !>![^cdg^c']2 !>![dgbd']2 !>![Dd]2- | %315
 [Dd]2 !>![EGBe]2 !>![FGBf]2 !>![GBg]2 | (g2 ^a2 =c'2 =c2- | c2 =d2 e2 f2) |"^*)" (g2 a2 b2 B2- | %319
 B2 c2 d3) (e/^e/) | (f2 g2 ^a2 ^A2- | A2 =c2 =d2 e2) | (f2 =g2 a2 A2- | A2 B2 !fermata!c4) || %324
[K:A][M:2/4]!f!"_L.H." c'/"^R.H." c'/[^ebd']/ c'/ c'/[^eb=e']/ c'/ c'/ | !fermata!z4 | %326
!p! c/ c/[FAd]/ c/ c/[FAe]/ c/ c/ | z4 |:"_sempre staccato"!mf! x4 | x4 | x4 | x4 :| %332
 F/ F/[^A,E=G]/ F/ F/[!courtesy!^A,E=A]/ F/ F/ | F/ F/[^A,E=G]/ F/ F/[!courtesy!^A,E=A]/ F/ F/ | %334
 F/ F/[B,D=G]/ F/ F/[B,DA]/ F/ F/ | F/ F/[B,D=G]/ F/ F/[B,DA]/ F/ F/ | x4 | x4 | x4 | x4 | x4 | %341
 x4 | x4 | x4 | x3"^L.H." !>!G/ x/ | !>!F/ x7/2 | x3 !>!A/ x/ | !>!G/ x7/2 | x3 !>!B/ x/ | %349
 !>!A/ x7/2 | x3 !>!c/ x/ | !>!B/ x2 x/ !>!B/ x/ | !>!A/ x2 x/ !>!A/ x/ | %353
 G/ G/[^B,FA]/ G/ G/[^B,F=B]/ !>!e/ G/ | !>!c/ G/[CEA]/ G/ G/[CEB]/ G/ G/ | x4 |"^Sognando" (C4 | %357
 E4 | ^E4-) | E4 |!mf! c'/ c'/[^eb^d']/ !>!g'/ c'/[eb^e']/ g/ g/ | %361
 g/ g/[^Bf^a]/ !>!^d'/ g/[Bf^b]/ c/ c/ | c/ c/[^EB^d]/ !>!g/ c/[EB^e]/ B/ B/ | %363
 G/ G/[^B,F^A]/ !>!^d/ G/[B,F^B]/ C/ C/ |: x3/2 G/ x2 | x3/2 G/ x2 | x3/2 =G/ x2 | x3/2 =G/ x2 :| %368
!f! !fermata!z4 |[K:bass]"^L.H." (3(!>!^C,,!>!^C,!>!C)[K:treble] (3(!>!c!>!c'!8va(!!>!c'')!8va)! | %370
!8va(! [ac']/c/[fd']/c'/ [a'c'']/c'/[ac']/c/ | [ac']/c/[f=d']/c'/ [a'c'']/c'/[ac']/c/!8va)! | %372
 c'/c/[^ed']/"_L.H." g'/ [gc']/[^eb=e']/ [Gg]/ [gc']/ | %373
 [cg]/ [gc']/[^ebd']/ [Cc]/ [gc']/[^eb=e']/ [cg]/ [gc']/ | %374
!8va(! [ac']/c/[fd']/c'/ [a'c'']/c'/[ac']/c/ | [ac']/c/[f=d']/c'/ [a'c'']/c'/[ac']/c/!8va)! | %376
 c'/c/[^ed']/"_L.H." g'/ [gc']/[^eb=e']/ [Gg]/ [gc']/ | %377
 [cg]/ [gc']/[^ebd']/ [Cc]/ [gc']/[^eb=e']/ [cg]/ [gc']/ | %378
 [^A,CF^A]/B,/[B,CGB]/C/- x/!8va(! c'/[f'^a'c'']/c'/!8va)! | [f^ac']/c/[F^Ac]/^D/ [C^E][CF] | %380
 z/"^brillante" [^dg]/"_L.H."[^Bf^a]/ ^d'/ [dg]/[Bf^b]/ [^Dd]/ [dg]/ | %381
 [FG^d]/ [dg]/[^Bf^a]/ ^d'/ [dg]/[Bf^b]/ [^DFd]/ [dg]/ | %382
 z/ [=fa]/[cb]/ ^e'/ [fa]/[cc']/ [Cc]/ [fa]/ | [^EBc]/ [=fa]/[cb]/ ^e'/ [fa]/[cc']/ [Cc]/ [fa]/ | %384
 z/ [^f^a]/[cb]/ f'/ [fa]/[cc']/ [Cc]/ [fa]/ | %385
 [Fc]/ [F^A]/[CB]/ [F,C]/ (3(!>![^A,A]!>![B,B]!>![^B,^B]) | %386
 !>![CE=Ac]/D/-[DE=Bd]/ E/- x/!8va(! e'/[a'c''e'']/e'/!8va)! | [ac'e']/e/[Ace]/F/ [G,CEG][A,CEA] | %388
 z/ [fb]/[^dac']/ f'/ [fb]/[da^d']/ [B,B]/ [fb]/ | %389
 [^DAB]/ [fb]/[^dac']/ f'/ [fb]/[da^d']/ [B,B]/ [fb]/ | %390
 z/ [g^b]/[e^a!courtesy!=d']/ g'/ [gb]/[ee']/ [Ee]/ [gb]/ | %391
 [Gde]/ [g^b]/[e^a=d']/ g'/ [gb]/[ee']/ [Ee]/ [gb]/ | %392
 z/ [=ac']/[ed']/ a'/ [ac']/[ee']/ [Ee]/ [ac']/ | %393
 [Ae]/ [Ac]/[Ed]/ [A,E]/!<(! (3(!>![Cc]!>![Dd]!>![^D^d])!<)! || %394
[K:C]!ff! !>![Ece]!>![F!courtesy!=df]!>![Geg]!>![G,EG]- | %395
 [G,EG]!>![A,FA] (3(!>![B,GB]!>![CAc]!>![DBd]) | [Ece][Fdf][Geg][G,EG]- | %397
 [G,EG][A,FA] (3[B,GB][CAc][DBd] | [Ece][Fdf][Geg][G,EG] | [A,FA][B,GB][CAc][DBd] | %400
 (3[Ece][Fdf][Geg] (3[G,EG][A,FA][B,GB] | (3[CAc][DBd][Ece] (3[Fdf][Gdg][G,EG] | %402
 (3[A,FA][B,GB][CAc] (3[DBd][Ece][Fdf] | (3[Geg][G,EG][A,FA] (3[B,GB][CAc][DBd] | %404
 !>!!fermata![G_dfa]4- | !fermata![Gdfa]4 |[K:bass]!p! z/ (G,/A,/G,/) !tenuto!_B,!tenuto!B, | %407
 z/ (A,/=B,/A,/) (^C/^D/B,/A,/) | z/ (_B,/=C/B,/) !tenuto!_D!tenuto!D | z/ (C/=D/C/) (E/^F/D/C/) || %410
[K:A][K:treble] x !>!c/ x !>!C/ x | x3 !>!c | z/ (C/^D/C/) !tenuto!=E!tenuto!E | %413
 z/ (_E/=F/E/) (=G/A/F/E/) | z/ (=E/^F/E/) !tenuto!=G!tenuto!G | z/ (_G/_A/G/) (_B/=c/A/G/) || %416
[K:C] z/ (G/A/G/) !tenuto!_B!tenuto!B | z/ (A/=B/A/) (^c/^d/B/A/) | %418
[I:staff +1] (3[_B,=F]/!8va(![I:staff -1] =d/[_a=c'e']/ !>!_b'/ d/[ac'e']/ !>!_b/ d/[ac'e']/ | %419
 _B/ d/[_ac'e']/ !>!_b/ d/[ac'e']/ !>!_b' | %420
[I:staff +1] (3[_A_e]/[I:staff -1] c/[^f_bd']/ !>!_a'/ c/[fbd']/ !>!_a/ c/[fbd']/ | %421
 _A/ c/[^f_bd']/ !>!_a/ c/[fbd']/ !>!_a' | %422
[I:staff +1] (3[^F^c]/[I:staff -1] ^A/[e^g=c']/ !>!^f'/ A/[egc']/ !>!^f/ A/[egc']/ | %423
[I:staff +1] ^f/[I:staff -1] ^A/[e^gc']/ !>!^f/ A/[egc']/ !>!^f'!8va)! | %424
!<(! !>![DE]!>![_DF] !>![C^F]!>![B,=G] | !>![=C^F^G]!>![B,=FA] !>![^A,E^A]!>![=A,_EB] | %426
 !>![=E_Bc]!>![^DA^c] !>![=D_Ad]!>![_DG_e] | %427
!<(! !>![=E^G=c=e]!>![F=ABf] !>![^F^Ae^f]!>![=G=AB_eg] | %428
 !>![^Gc^g]!>![=GA^ca] !>![^A=d^f^a]!>![B^dfb] | [=ce_bc'][^c_efa^c']!<)!!<)!!fff! [df_abd'] x || %430
[K:Eb]!ff! z/ [ee']/[egbe']/[ee']/ ([ee']/[_d_d']/)[dfad']/[dd']/ | %431
 [_d_d']/[ee']/[egbe']/[ee']/ ([ee']/[^f^f']/)[fb^d'f']/[ff']/ | %432
 ([^f^f']/[gg']/)[egbe']/([cc']/ [_d_d']/)[cc']/[B=d!courtesy!^fb]/([^Ff]/ | %433
 [Gg]/)[Bb]/[GBeg]/[Ee]/- [Ee]/B/{/d}[DAc]/B/ | %434
 z/ [ee']/[egbe']/[ee']/ ([ee']/[_d_d']/)[dfad']/[dd']/ | %435
 ([_d_d']/[ee']/)[egbe']/[ee']/ ([ee']/[^f^f']/)[f=b^d'f']/[ff']/ | %436
 ([^f^f']/[gg']/)[egbe']/([cc']/ [_d_d']/)[cc']/[B=d!courtesy!^fb]/([^Ff]/ | %437
 [Gg]/)[Bb]/[GBeg]/[Ee]/- [Ee]/[ee']/[ee']/[ee']/ | %438
 [ff']/[ee']/!tenuto![aa'] [ff']/[ee']/!tenuto![Aa] | %439
 [Aa] (c/4e/4f/4a/4 c'/4e'/4f'/4a'/4!8va(! c''/4e''/4f''/4a''/4)!8va)! | %440
 [ff']/[ee']/!tenuto![aa'] [ff']/[ee']/!tenuto![Aa] | %441
 [Aa] (_c/4e/4_g/4a/4 _c'/4e'/4_g'/4a'/4!8va(! _c''/4e''/4_g''/4a''/4)!8va)! | %442
 z/ [ee']/[e=gbe']/[ee']/ ([ee']/[_d_d']/)[dfad']/[dd']/ | %443
 ([_dfa_d']/[ee']/)!<(![egbe']/[ee']/ ([ee']/[^f^f']/)[f=b^d'f']/[ff']/!<)! | %444
 [^f^f']/[gg']/[egbe']/[cegc']/ [_deg_d']/[cegc']/[Begb]/[^F=B^d^f]/ || %445
[K:Bb][M:4/4] !tenuto![GBeg]!tenuto![Begb]!tenuto![GBeg][EGBe]- [EGBe] z!8va(! (3([f=ac'f'][gbe'g'][ac'e'=a']) || %446
[K:Bb]!ff! [bd'f'b']4!8va(! (3!>![_ac'e'_a']!>![_gc'e'_g']!>![ac'e'a'] (3!>![gc'e'g']!>![ac'e'a']!>![gc'e'g'] | %447
 !>![fbd'f']!>![e=ac'e'][dfbd'][_d=gb_d']- [dgbd'][egbe'][=e_gb=e'][f=bd'f']- | %448
 [fbd'f'][df_b=d']!8va)! [Bdfb][_Ae_a] (!trill(!!///-!T[A=a]/!trill)!=A/) [_GAce_g] [FAcef]2 | %449
!fff! z/!8va(! ([ff']/[gg']/[ff']/) !tenuto![_a_a']!tenuto![aa'] z/ ([ff']/[gg']/[ff']/) ([aa']/[bb']/[aa']/[fg']/)!8va)! | %450
 !>![fbd'f']2 !>![F,B,D]2 !>![DFBd]2 !>![fbd'f']2 |!8va(! !>![bd'f'b']!8va)! z z2 z4 |] %452
V:4
 !fermata!z8 |({/[B,,,B,,]} [F,B,D]4 [E,=A,^C]4 | C2 _C2 [E,B,]4) | %3
{/[B,,,B,,]} [=D,F,B,]2 !arpeggio![_G,,_F,B,]2- [G,,F,B,] [=F,,E,=A,]3 | %4
 [B,,D,] (!>![G,,D,]2 [_A,,E,] [_B,,F,]) (!>![G,,D,]2 [A,,E,] | [B,,F,]8) | %6
 z (!>![C,G,]2 [_D,_A,] [_E,B,]) (!>![C,G,]2 [D,A,] | [_E,B,]8) | %8
 z (!>![F,C]2 [_G,_D] [_A,E]) (!>![F,C]2 [G,D] | !fermata![_A,E]8) | %10
 z !tenuto!E!tenuto!E!tenuto!E (!>!E_D)!tenuto!D!tenuto!D | %11
 (!>!_DE)!tenuto!E!tenuto!E (!>!E[I:staff -1]^F)!tenuto!F!tenuto!F | %12
 (!>!^FG)[I:staff +1]!tenuto!E!tenuto!C (!>!_D!tenuto!C)"^poco rit."!tenuto!B,(^F, | %13
 G,)B,G,E,- E,4 | z4 !fermata!z2 E,2 ||[K:Ab] [A,,,A,,]2 [E,A,C]2 [E,!courtesy!=G,D]2 [D,G,=B,]2 | %16
 [_G,_B,]3 !tenuto![G,__B,-] B,!tenuto!._D!tenuto!._C!>!B, | [=C,E,A,]2 [_C,E,A,] z [E,,B,,E,]4 | %18
 G,,4 A,,4 | ([A,,,A,,]2 [E,,A,,]2) [D,,A,,]2 (3DEF | %20
 _G2{/[_G,,_G,]} !>![DGB]2 z2[K:treble]{/[Ee]} !>![D_FA_c]2 | %21
 [D_GB][_CDG][B,DG]!>![=A,EG]- [A,EG][CEG][=CEG]!>![DGB]- | %22
 [DGB][K:bass] [B,D_G][_G,B,D]!>![=E,F,_C]- [E,F,C]__E, D,2 || %23
[K:A]"_legato" F,"^poco scherzando"F B,F F,F B,F | F,F CF (F4 | B,,)B, E,B, B,,B, E,B, | %26
 B,,B, E,B, B,4 |"^pochissimo rall." !arpeggio![E,,=C,=G,]8 | %28
 !arpeggio!!>![E,,=B,,^G,]4- [E,,B,,G,]4 || z (3!>![G,B,]/F,/E,/ (!>![B,D]/A,/G,/)!>![DE]/ x4 | %30
!8vb(! z!8vb)! (3!>![A,=C]/=G,/=F,/ x6 |!8vb(! E,,,8!8vb)! | !tenuto![E,,,E,,]"^martellato" x7 | %33
 !tenuto![E,,,E,,] x7 | %34
 [E,,,E,,] (3:2:1!/![_E,A,]3/2(3:2:1!/![E,A,]3/2(3:2:1!/![E,A,]3/2 [F,A,]/[D,_A,][_D,=G,]/- [D,G,]/.[=C,_G,]/!^![=B,,=F,] | %35
 !>![=C,^F,]/!>![B,,=F,]!>![_B,,E,]/ !>![A,,^D,]!>![_A,,=D,]/!>![=G,,^C,]/- [G,,C,]/!>![^F,,=C,]/!>![=F,,=B,,] !>![E,,B,,]2 | %36
 !>![=C,^F,]/!>![B,,=F,]!>![_B,,E,]/ !>![A,,^D,]!>![_A,,=D,]/!>![=G,,^C,]/- [G,,C,]/[^F,,=C,]/[=F,,=B,,] !fermata![E,,B,,]2 | %37
 A,,2 [E,F]2 ([E^^F]2 [E^G]2) | CD^D!tenuto!E- E=D^B,!tenuto!^C- | CA,,B,,!tenuto!=C,- C,^C, D,2 | %40
 z/ (E,,/F,,/E,,/) !tenuto!=G,,!tenuto!G,, z/ (E,,/F,,/E,,/) (G,,/A,,/G,,/F,,/) | %41
 z/ (E,,/F,,/E,,/) !tenuto!=G,,!tenuto!G,, z/ (E,,/F,,/E,,/) (^G,,/A,,/B,,/E,,/) | %42
 A,,2 [E,F]2 ([E^^F]2 [E^G]2) | CD^D!tenuto!E- E=D^B,!tenuto!^C- | CA,,B,,!tenuto!=C,- C,^C, D,2 | %45
 z/ (E,,/F,,/E,,/) !tenuto!=G,,!tenuto!G,, z/ (E,,/F,,/E,,/) (G,,/A,,/G,,/F,,/) | %46
 z/ (E,,/F,,/E,,/) !tenuto!=G,,!tenuto!G,, z/ (E,,/F,,/E,,/) (^G,,/A,,/B,,/E,,/) | %47
 =C,4- C,!>(!(_E,D,_D,!>)! | =C,4-) C,!>(!(_E,D,_D,!>)! | [=F,,=C,]4-) [F,,C,]3 [F,,_A,]- | %50
 [F,,A,](=F,,_A,,_B,, =C,D,_E,=F, | !>!=G,4){/F,} !>!=F,4 | [_B,D]3 !tenuto![B,_D]- [B,D]4 | %53
 [_E,G,=C]2"^R.H." !fermata!z2 =F4 | !>!.=C,,"^poco cresc.".=C,.=G,,.C,, !>!.=B,,,.=B,,.^F,,.B,,, | %55
 !>!._E,,._E,._B,,.E,, !>!.=D,,.=D,.A,,.D,, | x[K:treble] x3[K:bass] x3[K:treble] !>!c | %57
[K:bass] .F,,.F,.C,.F,, .=F,,"^cresc.".=F,.=C,.F,, | .A,,.A,.E,.A,, ._A,,._A,._E,.A,, | %59
 .=C,.=C.=G,.C, .=B,,.B,.F,.B,, | x[K:treble] x6 !>!b |[K:bass] x[K:treble] x6 !>!a | %62
[K:bass] x[K:treble] x3[K:bass] x3/2[K:treble] x3/2 !>!f | %63
[K:bass] x[K:treble] x3[K:bass] x3/2[K:treble] x3/2 !>!f | %64
[K:bass] [E,,,E,,] (3B,/C/=D/ (G,/A,/B,/)(E,/ F,/G,/)(B,,/^B,,/ C,/D,/)!>!E,, | %65
 z (3=C/D/_E/ (A,/_B,/C/)(=F,/ =G,/A,/)(=C,/^C,/ D,/_E,/)!>!=F,, | %66
 z (3D/E/=F/ (B,/=C/D/)(G,/ A,/B,/)(E,/^E,/ F,/=G,/-)!>![=E,,B,,G,] | %67
 [E,,,E,,][K:treble] [DGB]/[DGB]/"^molto marcato" [DGB]/[DGB]/[DGB]/[DGB]/ [DGB]/!>![_D=G_B][=CFA]/- [CFA]/[=B,^E^G]/!>![_B,=E=G] | %68
[K:bass] !>![E,,,E,,] [A,^DF]/[A,DF]/ [A,DF]/[A,DF]/[A,DF]/[A,DF]/ [A,DF]/!>![_A,=D=F][=G,CE]/- [G,CE]/[^F,^B,^D]/!>![=F,=B,=D] | %69
 !>![E,,,E,,] [_E,A,=C]/[E,A,C]/ [E,A,C]/[E,A,C]/[E,A,C]/[E,A,C]/ [E,A,C]/!>![D,^G,B,][_D,=G,_B,]/- [D,G,B,]/[D,G,B,]/!>![=C,=F,A,] | %70
 z/ (!>!^G,,/F,,/4=F,,/4E,,/) (!>!=B,,/^A,,/4=A,,/4G,,/)(!>!D,/ C,/4=C,/4B,,/)(!>!^F,/E,/4^D,/4 =D,/)(!>!G,/F,/4=F,/4E,/) || %71
 [A,,,A,,]2 [E,A,CE]2 [A,,,A,,]2 [^G,D=F]2 | [A,,,A,,]2 A,2 !arpeggio![A,,,A,,D,]2 A,2 | %73
 [A,,,A,,]2 E,2 [A,,,A,,]2 E,2 | [A,,,A,,]2 [=G,_B,D]2 [E,A,C]2 [G,B,D]2 | %75
 !arpeggio![A,,E,C]2 [=G,_B,D]2 [E,A,C]2 [G,B,D]2 | [A,,,A,,]2 [E,A,CE]2 [A,,,A,,]2 [^G,D=F]2 | %77
 [A,,,A,,]2 A,2 !arpeggio![A,,,A,,D,]2 A,2 | [A,,,A,,]2 E,2 [A,,,A,,]2 E,2 | %79
 [A,,,A,,][E,,E,][A,,A,]!>![=G,,=G,]- [G,,G,][=F,,=F,] [E,,E,]2 | %80
 !arpeggio![A,,=F,=C]2 [F,C]2 !arpeggio![A,,F,C]2"^R.H." [F,C]2 | %81
 !arpeggio![A,,=F,=C]2 [F,C]2 !arpeggio![A,,F,C]2"^R.H." [F,C]2 | %82
 !arpeggio![A,,=F,=C]2 [F,C]2 !arpeggio![A,,F,C]2 [F,C]2 || %83
[K:C] !arpeggio![_A,,F,C][C,,C,][D,,D,][_E,,_E,] [F,,F,][G,,G,][A,,_A,][_B,,_B,] | %84
 [C,G,]2 [C,,C,]2 (3_B,_A,B, (3A,B,A, | %85
 !>![G,,G,][F,,F,][E,,E,]!>![_E,,_E,]- [E,,E,][F,,F,][^F,,^F,]!>![G,,G,]- | %86
 [G,,G,]"^cresc."[_E,,_E,][C,,C,]!>![_B,,_B,]- [B,,B,][G,,G,][E,,E,]!>![C,C]- | %87
 [C,C][G,,G,][_E,,_E,]!>![E,_E]- [E,E][C,C][!courtesy!_A,,_A,]!>![G,G] | [G,,,G,,]2[K:treble] x6 | %89
 x8 |[K:bass]{/[C,_A,]} (!>![_B,CE]=A,"^marc."G,)(!>![B,CE] A,G,) (3(!>![B,CE]A,G,) | %91
 (!>![=B,DF]A,G,)(!>![B,DF] A,G,) (3(!>![B,DF]A,G,) | %92
 (!>![_B,CE]A,G,)(!>![B,CE] A,G,) (3(!>![B,CE]A,G,) | %93
 (!>![_B,C_E]_A,_G,)(!>![B,CE] A,G,) (3(!>![B,CE]A,G,) | %94
{/C,} (!>![_B,C=E]A,G,)(!>![B,CE] A,G,) (3(!>![B,CE]A,G,) | %95
 (!>![=B,DF]A,G,)(!>![B,DF] A,G,) (3(!>![B,DF]A,G,) | %96
 (!>![G,_B,C]F,E,)(!>![G,B,C] F,E,)"^R.H." (3(!>![G,B,C]F,E,) | %97
 (!>![G,_B,C]F,E,)(!>![G,B,C] F,E,) (3(!>![G,B,C]F,E,) | %98
{/[F,,C,]} (!>![A,C]G,F,)(!>![A,C] G,F,) (3(!>![A,C]G,F,) | %99
 (!>![A,C]G,F,)(!>![A,C] G,F,) (3(!>![A,C]G,F,) | %100
 (!>![A,,D,]G,,F,,)(!>![A,,C,] G,,F,,) (3(!>![A,,C,]G,,F,,) | %101
 ([A,C]G,F,)(!>![A,C] G,F,) (3(!>![A,C]G,F,) | %102
{/C,} (!>![_B,CE]A,G,)(!>![B,CE] A,G,) (3(!>![B,CE]A,G,) | %103
 (!>![=B,DF]A,G,)(!>![B,DF] A,G,) (3(!>![B,DF]A,G,) | %104
"_L.H." [C,,C,]2"^cresc.""^R.H." (5:4:5(^D,/ E,/G,/C/E/) (5:4:5(^F,/ G,/C/E/G/) x2 | x8 | %106
{/[_B,,,_B,,]-} [B,,,B,,=F,_B,]8- | [B,,,B,,F,B,]8 | %108
 [A,,,A,,]2 (5:4:5(^B,,/"^cresc." ^C,/E,/A,/^C/) (5:4:5(^D,/ E,/A,/C/E/) (5:4:5(^G,/ A,/[I:staff -1]^C/E/A/) | %109
[I:staff +1] x8 |{/[G,,,G,,]-} [G,,,G,,D,B,]8- | [G,,,G,,D,B,]8 | %112
"^L.H.""^rall."{/[G,,D,]-} [G,,D,B,]8- | [G,,D,B,]3 z z2 (G,/F,/E,/D,/) | %114
 [C,,C,]2 [G,CE]2 [G,,,G,,]2 [F,_B,D]2 | [C,,C,]2 [G,CE]2 [G,,,G,,]2 [^F,=B,^D]2 | %116
 [C,,C,]2 [G,CE]2 [G,,,G,,]2 [F,_B,D]2 | %117
 !>![C,C]4 (3(!>![_B,,_B,]!>![_A,,_A,][I:staff -1]!>![_B,_B])[I:staff +1] (3!>![A,,A,][I:staff -1]!>![B,B][I:staff +1]!>![A,,A,] | %118
 [C,,C,]2 [G,CE]2 [G,,,G,,]2 [F,_B,D]2 | [C,,C,]2 [G,CE]2 [G,,,G,,]2 [^F,=B,^D]2 | %120
 [C,,C,]2 [G,CE]2 [G,,,G,,]2 [=F,_B,=D]2 | [C,C]3 [C,C]- [C,C][_B,,_B,][A,,A,][G,,G,] | %122
 !arpeggio![F,,C,A,]2 [F,A,D]2 [F,A,C]2 [F,A,D]2 | [F,A,_E] [F,A,D]2 [F,A,E] [F,A,D]2 [F,A,C]2 | %124
 !arpeggio![F,,C,_A,]2 [F,A,D]2 [F,A,C]2 [F,A,D]2 | [F,_A,_E] [F,A,D]2 [F,A,E] [F,A,D]2 [F,A,C]2 | %126
 [C,,C,]2 [D,,D,]2 [!courtesy!=E,,!courtesy!=E,]2 [G,,,G,,]2 | %127
 [A,,,A,,]2 [=B,,,=B,,]2 [^C,,^C,]2 [^F,,,^F,,]2 | [G,,,G,,]2 [A,,,A,,]2 [_B,,,_B,,]2 [_E,,_E,]2 | %129
{/[D,,D,]} [=B,D]8- | [B,D]4 [C_E]4 | [G,,D,B,]8- | [G,,D,B,]4 [A,,^C,G,]4 | %133
 z (!>!^E^F)D (!>!EF)A,B, | %134
"_*) Cut may be made to *) p. 158.""^rit." (3(CB,A,) !tenuto!D!tenuto!D D4- | D6 !>![D,,A,,D,] z | %136
 z !>![D,,A,,D,]z!>![D,,A,,D,] !>![D,,A,,D,] z!8vb(! D,,,2- | %137
 (!>!D,,/^D,,/E,, E,,)(!>!E,,/^E,,/ ^F,,F,,) (!>!F,,/G,,/^G,, | %138
"^poco a poco  cresc." ^G,,)(!>!G,,/A,,/ ^A,,A,,) !>!A,,/B,,/C, x2!8vb)! | z8 | %140
 z4"^L.H.""^rall. e dim." x4 ||[K:G]"^L.H." G,2 x2 D,2 x2 | G,2 x2 D,2 x2 | %143
 G,2 x2 D,2[K:treble] [D!courtesy!^Fc][DFc] | %144
[K:bass]"^espr." z2 .[B,D].[B,D] (3!>!=F,_E,F, (3E,F,E, | [G,,D,]2 x2 D,2 x2 | G,2 x2 D,2 x2 | %147
 G,2 x2 D,2[K:treble] [D!courtesy!^Fc][DFc] |[K:bass] G,2 .[B,D]G,, (!>!=F2- [G,F]2) | %149
 !arpeggio![C,_B,E]2[K:treble] [A,CEA]2 [G,CEG]2 [A,CEA]2 | %150
 [_B,CE_B] [A,CEA]2 [B,C=EB] [A,CEA]2 [G,CEG]2 | %151
[K:bass] !arpeggio![C,G,_E]2[K:treble] [A,C_EA]2 [G,C=EG]2 [A,CEA]2 | %152
 [_B,CE_B] [A,CEA]2 [B,C=EB] [A,CEA]2 [G,CEG]2 |[K:bass] G,2 x2 D,2 x2 | G,2 x2 D,2 x2 | %155
 G,2 x2 D,2[K:treble] .[D!courtesy!^Fc].[DFc]/ !fermata!z/ |[K:bass] z2 .B,.B, z2 .B,.B, | %157
 z2 .C.C B,4 | z2 ^C.C z2 .C.C | z2 .^C.C D4 ||[K:A] A,, (!>!C2 [E,C]) A,, (!>!B,2 [E,B,]) | %161
 A,, (!>!C2 [E,C]) A,, (!>!^D2 [E,D]) | A,, (!>!E2 [E,E]) A,, (!>!=D2 [E,D]) | %163
 A,, (!>!C2 E,) z3/2 (=G,/ [A,CF])(G,/[^G,DE]/) | A,, (!>!C2 [E,C]) A,, (!>!B,2 [E,B,]) | %165
 A,, (!>!C2 [E,C]) A,, (!>!^D2 [E,D]) | A,, (!>!E2 [E,E]) A,, (!>!=D2 [E,D]) | %167
 A,, (!>!C2 E,) A,,(E, !arpeggio![A,C=G]2) | [D,,D,][K:treble] z [DFB] z [DFA] z [DFc] z | %169
 [DF=c] z [D!courtesy!^FB] z [DFc] z [DFA] z | %170
[K:bass] [D,,D,][K:treble] z [D=FB] z [DFA] z [DFc] z | [D=F=c] z [DFB] z [DFc] z [DFA] z | %172
[K:bass] A,, (!>!!courtesy!^C2 [E,C]) A,, (!>!B,2 [E,B,]) | A,, (!>!C2 [E,C]) A,, (!>!^D2 [E,=D]) | %174
 !arpeggio![A,,C]4 !arpeggio![=B,,D]4 | !arpeggio![C,E]4 !arpeggio![E,=G]4 | %176
 !arpeggio![D,,F,]4 !arpeggio![E,,=G,]4 | !arpeggio![F,,A,]4 !arpeggio![A,,=C]4 | %178
 !arpeggio![A,,^C]4 !arpeggio![B,,D]4 | !arpeggio![C,E]4 !arpeggio![E,=G]4 | z8 | %181
 !arpeggio!!>![D,,A,,D,]8 | z8 || %183
[K:G] [G,,,G,,] [B,,,B,,]2 [D,,D,] (3!tenuto![G,,G,]!tenuto![A,,A,]!tenuto![G,,G,] (3!tenuto![A,,A,]!tenuto![G,,G,]!tenuto![A,,A,] | %184
 [B,,B,][C,C][D,D][=E,C=E]- [E,CE]2 [_E,G,_E][D,G,=B,D]- | %185
 [D,G,B,D][B,,D,G,B,][G,,B,,D,G,]{/D,,}[=F,^F,C]- [=F,^F,C][_E,F,C] [D,F,C]2 | %186
"^dim." [D,G,B,]3 [_E,_A,C]- [E,A,C]2 [D,^F,C]2 | %187
 [D,G,B,]2 [_E,_A,C]2 z"^poco accel." ((!>![D,G,B,]3 | [_E,_A,C]2)) [D,G,B,]2 z ((!>![E,A,C]3 | %189
 [D,G,B,]2))[K:treble] [_E_Ac]2 z"^cresc." ((!>![DGB]3 | [_E_Ac]2)) [DGB]2 z ((!>![EAc]3 | %191
 [DGB]2))!8va(! [_e_ac']2 z ((!>![dgb]3 | [_e_ac']2)) [dgb]2 z ((!>![eac']3 | %193
"^cresc." [dgb]2)) [_e_ac']2 z ((!>![dgb]3 | [_e_ac']2)) [dgb]2 z !>![eac']3- | %195
 [eac']2!8va)![K:bass]!ped! !>![_A,,C,_E,=F,]2 z2"^rall." z!ped-up! !fermata!D,, | %196
 [D,G,B,D]"^a tempo"E,G,"^R.H."G,- G,D,E,D, | z8 | (3A,,2 B,,2 A,,2 C,4 | %199
 !>!_E,2- (5:4:5(E,/_D,/_B,,/G,,/_E,,/)!8vb(! !>!!fermata!=D,,,4!8vb)! | %200
"^R.H." D,"^a tempo"=E,G,G,- G,D,E,D, |{/D,E,} !>!=F,4{E,^F,} E, !tenuto!D,3 | %202
 (3(A,,2 B,,2 A,,2) C,4 | x8 |"^R.H." D,!courtesy!=E,G,G,- G,D,E,D, | %205
{/D,E,} !>!=F,4{E,^F,} E, !tenuto!D,3 |{C,D,} (3(C,2 B,,2 C,2) A,,4- | %207
 .A,,.B,,.C,.D, .E,.F,.G,.A, | _B,3{/F,} G,- G, B,2 G, | _B,3{/F,} G,- G, B,2 G, | %210
 =F, z F, z F, D,2 !>!F,- | F,4- F,^F, (3(G,^G,A,) | _B,3{/F,} G,- G, B,2 G, | C3 G,- G, _B,2 G, | %214
 =F, z F, z F, D,3 | %215
"^L.H." (!tenuto!G,"^poco rall."!tenuto!!courtesy!^F,!tenuto!=F,!tenuto![E,^G,]- [E,G,]!tenuto![_E,=G,] !fermata![D,^F,]2) | %216
"_L.H." D,"^a tempo"=E,G,G,- G,D,E,D, | !>!=F,4 !tenuto!E, !tenuto!D,3 | =F,=G,_B,B,- B,F,G,F, | %219
"^molto cresc." !>!_A,4 !tenuto!G, !tenuto!=F,3 || %220
[K:C] [_A,_B,_DF] [_D,,_A,,]2"^agitato" [A,B,DF] [D,,A,,]2 [A,B,DF][D,,A,,]- | %221
 [D,,A,,][_A,_DF] [_D,,_A,,]2 [A,_B,DF] [D,,A,,]2 [A,B,DF] | %222
 [_D,,_A,,]2 [_A,CF][D,,A,,]- [D,,A,,][_B,C_G] [D,,A,,]2 | %223
 [_B,C_G] [_D,,_A,,]2 [B,CG] [D,,A,,]2 [B,CG][D,,A,,]- | %224
 [D,,A,,][_A,_B,_DF] [_D,,_A,,]2 [A,B,DF] [D,,A,,]2 [A,B,DF] | %225
 [_D,,_A,,]2 [_A,_DF][D,,A,,]- [D,,A,,][A,_B,DF] [D,,A,,]2 | %226
 [_B,C_G] [_D,,_A,,]2 [B,CG] [D,,A,,]2 [B,CG][D,,A,,]- | %227
 [D,,A,,][_B,C_G] [_D,,_A,,]2 [B,CG] [D,,A,,]2 [B,CG] | _A,"^a tempo"_B,_DD- DA,B,A, | %229
 !>!C4 !tenuto!_B, !tenuto!_A,3 | =B,"^cresc."^C=EE- EB,CB, | !>!D4 !tenuto!^C !tenuto!B,2 (=G,, | %232
 B,)(A,,"^agitato"=C)(B,, D)(G,,B,)(A,, | C)(B,,D)(G,, B,)"_simile"(A,,C)A,, | DG,,B,A,, CB,,DG,, | %235
 B,A,,CB,, DG,, B,2 | (3(!>![C_EG]2 !>![B,EG]2 !>![CEG]2) !>![A,D^F]4 | %237
 !tenuto!D,,2"^Cad." !tenuto!^F,2"^brillante" x31/2 x3/2 | z8 || %239
[K:treble] (3[Cc][B,B][A,A][K:bass] (3[=F,=F][=E,=E][D,D] (3[C,C][B,,B,][A,,A,] (3[F,,F,][E,,E,][D,,D,] (3[C,,C,][B,,,B,,][A,,,A,,]!8vb(! (3!>!F,,,!8vb)!!8vb(!!>!E,,,!8vb)!!8vb(!!>!D,,,!8vb)! D,,4 | %240
 x8 | x8 |"^rall." x8 | x4 !arpeggio![B,^FB^d]4 ||[K:E][M:4/4][K:bass] [E,,,E,,]8 | %245
"^con expressione""^R.H." [G,,,G,,]8 | [F,,,F,,E,^A,]8- | [F,,,F,,E,A,]8 | [B,,,B,,=A,]8- | %249
 [B,,,B,,A,]8 | [E,,B,,G,]8- | [E,,B,,G,]8 | [E,,,E,,]8 | [G,,,G,,]6 [=D,,=D,]2 | [C,,C,A,]8- | %255
 [C,,C,A,]8 | [G,,^E,B,]8- | [G,,E,B,]8 | [F,,,F,,]8 | [A,,,A,,]8 | [G,,,G,,]8 | [C,,C,]8 | %262
 !arpeggio![F,,C,^A,]8- | [F,,C,A,]6 [F,,C,^A,]2 |"^rit." [=F,,=C,=A,]8- | %265
 [F,,C,A,]4{/=F,,} [B,,A,]4 | [G,B,E]2"^a tempo" [A,B,F]2 [B,EG]2 !>![B,,E,G,]2- | %267
 [B,,E,G,]2 !>![C,E,G,]2 !>![D,G,B,]2 !>![E,G,B,]2 | %268
"^leggiero" [E,^A,D][E,A,=D] [E,A,C]2 [E,A,^D]2 [E,A,=D]2 | %269
 [E,^A,C][E,A,^D] [E,A,=D]2 [E,A,C]2 [E,A,^D]2 | [=A,=D][A,C] [A,^D]2 [A,=D]2 [A,C]2 | %271
 [A,^D][A,=D] [A,C]2 [A,^D]2 [A,=D]2 | [E,G,C][E,G,^D] [E,G,=D]2 [E,G,C]2 [E,G,^D]2 | %273
 [E,G,=D][E,G,C] [E,G,^D]2 [E,G,=D]2 [E,G,C]2 | [G,B,E]2 [A,B,F]2 [B,EG]2 !>![B,,E,G,]2- | %275
 [B,,E,G,]2 [C,E,G,]2 [D,G,B,]2 z2 |"^cresc. ed accel." [A,CF][A,C=F] [A,CE]2 [A,C^F]2 [A,C=F]2 | %277
 [A,CE][A,C^F] [A,C=F]2 [A,CE]2 [A,C^F]2 | [G,B,=F][G,B,E] [G,B,^F]2 [G,B,=F]2 [G,B,E]2 | %279
 [G,B,^F][G,B,=F] [G,B,E]2 [G,B,^F]2 [G,B,=F]2 |"^allargando" x6 (3!>!CDC | %281
 [E,A,]2 !>![F,=CE]2 !>![G,CE]2 !>![A,CE]2 | x6 (3!>!^A,C=C | %283
 [D,G,]2 [E,G,B,]2 [F,G,B,]2 [G,B,E]2 | ([^A,EG] [F,,C,]2) ([A,EG] [F,,C,]2) ([A,EG][F,,C,]-) | %285
 [F,,C,]([^A,EG] [F,,C,]2) ([A,EG] [F,,C,]2) [A,EG] | %286
 [=A,^DG] [B,,,B,,]2 [A,DG] [B,,,B,,]2 [A,DG][B,,,B,,]- | %287
 [B,,,B,,][A,DG] [B,,,B,,]2 [A,DG][B,,,B,,] z [B,,,B,,] | D,"^legato"=D, C,2 ^D,2 =D,2 | %289
 C,^D, =D,2 C,^D,E,^E, | F,=F, =E,2 ^F,2 =F,2 | E,^F, =F,2"^poco a poco cresc." E,^F,G,A, | %292
 B,_B, A,2 =B,2 _B,2 | A,=B, _B,2 A,=B,C=D | E_E =D2 =E2 _E2 | =D=E"^dim." _E2 D2 =E2 | %296
 _E=D =E2 _E2 D2 | G=G F2"^rall." ^G2 ^^F2 | z (E,,"^espressivo"B,,E, ^^F,G, =D2) | %299
 G,,2 C2 B,2 C,2 |"_marcato"{/F,,} [D,D][=D,=D] [C,C]2 [^D,^D]2 [=D,=D]2 | %301
 [C,C][^D,^D] [=D,=D]2 [C,C]2 [^D,^D]2 |{/B,,,} [=D,=D][C,C] [^D,^D]2 [=D,=D]2 [C,C]2 | %303
 [^D,^D][=D,=D] [C,C]2 [^D,^D]2 [=D,=D]2 |{/E,,} [C,C][^D,^D] [=D,=D]2 [C,C]2 [^D,^D]2 | %305
 [=D,=D][C,C] [^D,^D]2 [=D,=D]2 [C,C]2 | [B,,B,](E,,B,,E, ^^F,G, =D2) | G,,2 C2 B,2 =D,2 | %308
{/C,} [F,F][=F,=F] [E,E]2 [^F,^F]2 [=F,=F]2 | [E,E][^F,^F] [=F,=F]2 [E,E]2 [^F,^F]2 | %310
{/G,,} [=F,=F][E,E] [^F,^F]2 [=F,=F]2 [E,E]2 | [^F,^F][=F,=F] [E,E]2 [^F,^F]2 [=F,=F]2 | %312
 z"^espr." (A,,E,A, ^B,C A2) | z (F,,E,A, =CE F2) | z"^calmato" (G,,D,G, ^A,B, G2) | %315
 z (^C,,G,,C, D,E, C2) | ([^A,EG] [F,,C,]2) ([A,EG] [F,,C,]2) ([A,EG][F,,C,]-) | %317
 [F,,C,]([^A,EG] [F,,C,]2) ([A,EG] [F,,C,]2) [A,EG] | %318
 [=A,^DG] [A,DG]2 [A,DG] [A,DG]2 [A,DG][A,DG]- | [A,DG][A,DG] [A,DG]2 [A,DG] [A,DG]2 [A,C=G] | %320
 ([^G,=DF] [E,,B,,]2) ([G,DF] [E,,B,,]2) ([G,DF][E,,B,,]-) | %321
 [E,,B,,]([G,=DF] [E,,B,,]2) ([G,DF] [E,,B,,]2) [G,DF] | %322
 [=G,^CF] [G,CF]2 [G,CF] [G,CF]2 [G,CF][G,CF]- | %323
 [G,CF][=G,CF] [G,CF]2 [G,C=F] [G,CF]2 !fermata![G,CF] ||[K:A][M:2/4]"^assai staccato" x4 | x4 | %326
 x4 | x4 |: C/ C/[^E,B,D]/ C/ C/[!courtesy!^E,B,=E]/ C/ C/ | %329
 C/ C/[^E,B,D]/ C/ C/[!courtesy!^E,B,=E]/ C/ C/ | C/ C/[F,A,D]/ C/ C/[F,A,E]/ C/ C/ | %331
 C/ C/[F,A,D]/ C/ C/[F,A,E]/ C/ C/ :| x4 | x4 | x4 | x4 | %336
 C/ C/[^E,B,D]/ !>!C,,/ C/[!courtesy!^E,B,=E]/ !>!G,,/ C/ | %337
 !>!C,/ C/[^E,B,D]/ !>!G,/ C/[!courtesy!^E,B,=E]/ !>!C/ C/ | %338
 C/ C/[F,A,D]/ !>!C,,/ C/[F,A,E]/ !>!F,,/ C/ | !>!C,/ C/[F,A,D]/ !>!F,/ C/[F,A,E]/ !>!C/ C/ | %340
 C/ C/[^E,B,D]/ !>!C,,/ C/[!courtesy!^E,B,=E]/ !>!G,,/ C/ | %341
 !>!C,/ C/[^E,B,D]/ !>!G,/ C/[!courtesy!^E,B,=E]/ !>!C/ C/ | %342
 C/ C/[F,A,D]/ !>!C,,/ C/[F,A,E]/ !>!F,,/ C/ | !>!C,/ C/[F,A,D]/ !>!F,/ C/[F,A,E]/ !>!C/ C/ | %344
 C/ C/[F,A,D]/ C/ C/[F,A,E]/ x/ C/ | x/ C/[F,A,D]/ C/ C/[F,A,E]/ C/ C/ | %346
 C/ C/[^E,B,D]/ C/ C/[!courtesy!^E,B,=E]/ x/ C/ | x/ C/[^E,B,D]/ C/ C/[!courtesy!^E,B,=E]/ C/ C/ | %348
 C/ C/[F,A,D]/ C/ C/[F,A,E]/ x/ C/ | x/ C/[F,A,D]/ C/ C/[F,A,E]/ C/ C/ | %350
 C/ C/[^E,B,D]/ C/ C/[!courtesy!^E,B,=E]/ x/ C/ | x/ C/[^E,B,D]/ C/ C/[!courtesy!^E,B,=E]/ x/ C/ | %352
 x/ C/[F,A,D]/ C/ C/[F,A,E]/ x/ C/ | x4 | x4 | %355
 G,/ G,/[^B,,F,A,]/ G,/ G,/[^B,,F,=B,]/ !>!!fermata!E | z/ (G,/^A,/G,/) !tenuto!B,!tenuto!B, | %357
 z/ (G,/^A,/G,/) (B,/C/B,/A,/) |"^rall. e dim." z/ (G,/^A,/G,/) !tenuto!B,B,- | B,4 | %360
"^a tempo" x4 | x4 | x4 | x4 |: G,/ C/[^E,B,^D]/ x/ C/[E,B,^E]/ C,/ C/ | %365
 G,/ C/[^E,B,^D]/ x/ C/[E,B,^E]/ C,/ C/ | =G,/ C/[^E,^A,^D]/ x/ C/[E,B,^E]/ C,/ C/ | %367
 =G,/ C/[^E,^A,^D]/ x/ C/[E,B,^E]/ C,/ C/ :|!8vb(! !fermata!C,,,4!8vb)! | %369
"_glissando brillante""_R.H." (14:8:14=C,,/4D,,/4E,,/4=F,,/4=G,,/4A,,/4B,,/4=C,/4D,/4E,/4=F,/4=G,/4A,/4B,/4[K:treble](15:8:15=C/4D/4E/4=F/4=G/4A/4B/4=c/4d/4e/4=f/4=g/4a/4b/4=c'/4 | %370
[K:bass] [A,,A,][B,,B,][C,C][C,,C,]- | [C,,C,][^D,,^D,][^E,,^E,][F,,F,] | !>![G,,G,]4 | x4 | %374
 [A,,A,][B,,B,][C,C][C,,C,]- | [C,,C,][^D,,^D,][^E,,^E,][F,,F,] | !>![G,,G,]4 | x4 | %378
"^poco a poco cresc." [F,,,F,,]4 | [C,F,A,C][^D,F,^A,] [^E,A,][F,A,] | !>![G,,,G,,]4 | x4 | %382
 !>![C,,C,]4 | x4 | !>![!courtesy!^F,,,!courtesy!^F,,]4 | %385
 z2 (3(!>![F,,,F,,]!>![=G,,,=G,,]!>![^G,,,^G,,]) | !>![=A,,,=A,,]4 | %387
 [E,A,CE][F,A,C] z/ (E,/C,/A,,/) | !>![B,,,B,,]4 | x4 | !>![E,,E,]4 | x4 | !>![=A,,,=A,,]4 | %393
 z2 (3(!>![A,,,A,,]!>![_B,,,_B,,]!>![=B,,,=B,,]) ||[K:C] !>![C,C]!>![D,D]!>![E,E]!>![E,,E,]- | %395
 [E,,E,]!>![F,,F,] (3(!>![G,,G,]!>![A,,A,]!>![B,,B,]) |"^simile" [C,C][D,D][E,E][E,,E,]- | %397
 [E,,E,][F,,F,] (3[G,,G,][A,,A,][B,,B,] | [C,C][D,D][E,E][E,,E,] | [F,,G,][G,,G,][A,,A,][B,,B,] | %400
 (3[C,C][D,D][E,E] (3[E,,E,][F,,F,][G,,G,] | (3[A,,A,][B,,B,][C,C] (3[D,D][E,E][E,,E,] | %402
 (3[F,,F,][G,,G,][A,,A,] (3[B,,B,][C,C][D,D] | (3[E,E][E,,E,][F,,F,] (3[G,,G,][A,,A,][B,,B,] | %404
{/!fermata![_E,,_B,,]} !>!!fermata![_E,_B,]4- | !fermata![E,B,]4 | !>!.C,,.C,"^agitato" .G,,.C,, | %407
 !>!.=B,,,.B,, .^F,,.B,,, | !>!._E,,._E, ._B,,.E,, | !>!.=D,,.D, .A,,.D,, || %410
[K:A] (3(!>![C,,G,,]/ ^E,/[B,^D^^F]/) x/ E,/[B,DF]/ x/ E,/[B,DF]/ | %411
 !>!C,/ ^E,/[B,^D^^F]/ !>!C/ E,/[B,DF]/ x | !>!.F,,"^poco a poco cresc.".F, .C,.F,, | %413
 !>!.=F,,.=F, .=C,.F,, | !>!.A,,.A, .E,.A,, | !>!._A,,._A, ._E,.A,, ||[K:C] !>!.C,.C .G,.C, | %417
 !>!.=B,,.=B, .^F,.B,, | x4 | x4 | x4 | x4 | z4 | z4 | [^G,B,]=G, ^F,=F, | %425
 !>![^G,,^G,]!>![=G,,=G,] !>![^F,,^F,]!>![=F,,=F,] | %426
 !>![C,C]!>![=B,,=B,] !>![_B,,_B,]!>![=A,,_E,A,] | %427
 !>![_A,,_G,_A,]!>![=G,,F,=G,] !>![_G,,=E,_G,]!>![=F,,_E,=F,] | %428
 !>![E,,D,=E,]!>![_E,,_D,_E,] !>![D,,C,=D,]!>![_D,,_C,_D,] | %429
 [=C,,_B,,=C,][=B,,,A,,=B,,] [_B,,,_B,,F,_A,_B,D]"^R.H." (_B,/4_A,/4G,/4F,/4) || %430
[K:Eb]"^marcato" [E,,E,][B,EGB] [B,,,B,,][A,_DFA] | [E,,E,][G,B,EG] [B,,,B,,][^F,=B,^D^F] | %432
 [E,,E,][G,B,E] [B,,,B,,][A,B,=D^F] | [E,,E,][G,B,E] [B,,,B,,]B, | %434
 [E,,E,][G,B,EG] [B,,,B,,][A,_DFA] | [E,,E,][G,B,EG] [B,,,B,,][^F,=B,^D^F] | %436
 [E,,E,][G,B,E] [B,,,B,,][A,B,=D^F] | [E,,E,][G,B,E] [E,,E,][E,G,_D] | %438
 !arpeggio![A,,E,_G,C]/[E,G,C][E,G,C]/ [E,G,C][E,G,C]/[E,G,C]/- | %439
 [E,_G,C]/[E,G,C]/[E,G,C] [E,G,C]/[E,G,C][E,G,C]/ | %440
 !arpeggio![A,,E,_G,_C]/[E,G,C][E,G,C]/ [E,G,C][E,G,C]/[E,G,C]/- | %441
 [E,_G,_C]/[E,G,C]/[E,G,C] [E,G,C]/[E,G,C][E,G,C]/ | %442
 [E,,E,]"^poco  a  poco   rit."[G,B,EG] [B,,,B,,][A,_DFA] | [E,,E,][G,B,EG] [B,,,B,,][^F,=B,^D^F] | %444
 [E,,E,] [E,G,B,E]/[C,E,G,C]/ [_D,E,G,_D]/[C,E,G,C]/[B,,E,G,B,]/[^F,,=B,,^D,^F,]/ || %445
[K:Bb][M:4/4] !tenuto![G,,B,,E,G,]!tenuto![B,,E,G,B,]!tenuto![G,,B,,E,G,][E,,G,,B,,E,]- [E,,G,,B,,E,] z (3([E,,E,][D,,D,][C,,C,]) || %446
[K:Bb] !>![B,,,B,,]2 x2 (3!arpeggio!!>![F,,E,=A,][K:treble]!>![CE=A]!>![CEA] (3!>![CEA]!>![CEA]!>![CEA] | %447
[K:bass]{/[B,,,B,,]} !>![B,,B,]{/[B,,,B,,]}!>![C,C]"^simile"{/[B,,,B,,]}[D,D]{/[B,,,B,,]}[E,E]- [E,E][E,G,B,E][_D,_G,B,_D][=D,F,B,=D]- | %448
 [D,F,B,D][B,,D,F,B,][F,,B,,D,F,]!arpeggio![F,,E,=A,] x"^L.H." _G, [F,,C,F,]2 | %449
 z/[K:treble] ([F,B,DF]/"^molto rit."[G,B,DG]/[F,B,DF]/) !tenuto![_A,B,D_A]!tenuto![A,B,DA] z/ ([F,B,DF]/[G,B,DG]/[F,B,DF]/) ([A,B,DA]/[B,DFB]/[A,B,DA]/[G,B,DG]/) | %450
[K:bass]!ped! !>![F,B,DF]2 !>![B,,,F,,B,,]2 !>![B,,F,B,]2[K:treble] !>![B,Fd]2 | %451
[K:bass] !>![B,,,F,,B,,]!ped-up! z z2 z4 |] %452
V:5
 x8 | x8 |{/[B,,,B,,]} [D,_A,]4 (G,2 _G,2) | x8 | x8 | x8 | x8 | x8 | x8 | x8 | [E,B,]8- | %11
 [E,B,]8- | [E,B,]8- | [E,B,]8 | x8 ||[K:Ab] x8 | C,D,=D,[E,_G,]- [E,G,]4 | x8 | %18
 (A,,,2"^tranquilo" D,,2) (A,,,2 D,,2) | x8 | x6[K:treble] x2 | x8 | x[K:bass] x7 ||[K:A] x8 | %24
 x4 B,A,G,F, | x8 | x4 (E,D,C,B,,) | x8 | x8 || [E,,,E,,]8 |!8vb(! E,,,8!8vb)! |!8vb(! x8!8vb)! | %32
 x8 | x8 | x8 | x8 | x8 | x8 | x8 | x8 | x8 | x8 | x8 | x8 | x8 | x8 | x8 | =F,,8 | =F,,8 | x8 | %50
 x8 | z2"^deciso" [=C,,=G,,]2 z2 G,,2 | =E,"^scherzando"=F,^F,=G,- G,=F, =E,2 | %53
 x4 !arpeggio!!fermata![=G,,D,=B,]4 | x8 | x8 | x[K:treble] x3[K:bass] x3[K:treble] x | %57
[K:bass] x8 | x8 | x8 | x[K:treble] x7 |[K:bass] x[K:treble] x7 | %62
[K:bass] x[K:treble] x3[K:bass] x3/2[K:treble] x5/2 | %63
[K:bass] x[K:treble] x3[K:bass] x3/2[K:treble] x5/2 |[K:bass] x8 | x8 | x8 | x[K:treble] x7 | %68
[K:bass] x8 | x8 | [E,,,E,,]2 z2 z4 || x8 | x8 | x8 | x8 | x8 | x8 | x8 | x8 | x8 | %80
 x4 z (A,=C[I:staff -1]D) | x4[I:staff +1] z (A,=C[I:staff -1]D) | x8 ||[K:C] x8 | %84
 x4[I:staff +1] C,4 | x8 | [C,,C,]2 z2 [_B,,,_B,,]2 z2 | [A,,,A,,]2 z2 [_A,,,_A,,]2 z2 | %88
 x2[K:treble] x6 | x8 |[K:bass] x8 | x8 | x6 z2 | %93
 .[_A,,,_A,,]2 .[A,,,A,,]2 .[A,,,A,,]2 .[A,,,A,,]2 | x8 | x8 | x6 z2 | %97
 .[C,,C,]2 .[C,,C,]2 .[C,,C,]2 .[C,,C,]2 | x8 | x8 | x8 | x8 | x8 | x8 | x8 | x8 | x8 | x8 | x8 | %109
 x8 | x8 | x8 | x8 | x8 | x8 | x8 | x8 | x8 | x8 | x8 | x8 | x8 | x8 | x8 | x8 | x8 | x8 | x8 | %128
 x8 | x8 | x8 | x8 | x8 | x8 | x8 | x8 | x6!8vb(! x2 | D,,,8- | D,,,8!8vb)! | x8 | x8 ||[K:G] x8 | %142
 x8 | x6[K:treble] x2 |[K:bass] G,4 x4 | x8 | x8 | x6[K:treble] x2 |[K:bass] x8 | x2[K:treble] x6 | %150
 x8 |[K:bass] x2[K:treble] x6 | x8 |[K:bass] x8 | x8 | x6[K:treble] x2 | %156
[K:bass] [G,,D,]4 [^G,,D,]4 | [A,,D,]4 (=F,2 E,2) | [A,,E,]4 [^A,,E,]4 | [B,,E,]4 (E,2 ^F,^G,) || %160
[K:A] x8 | x8 | x8 | x4 A,,F,- F,/E,/-E, | x8 | x8 | x8 | x8 | %168
 x[K:treble] !>!B,2 !>!A,2 !>!B,2 !>!=C- | C !>!B,2 !>!=C2 !>!A,- A,2 | %170
[K:bass] x[K:treble] !>!B,2 !>!A,2 !>!B,2 !>!=C- | C !>!B,2 !>!=C2 !>!A,- A,2 |[K:bass] x8 | x8 | %174
 z2 E,2 z2 E,2 | z2 A,2 z2 A,2 | z2 A,,2 z2 A,,2 | z2 D,2 z2 F,2 | z2 E,2 z2 E,2 | z2 A,2 z2 C2 | %180
 x8 | x8 | x8 ||[K:G] x8 | x8 | x8 | x8 | x8 | x8 | x2[K:treble] x6 | x8 | x2!8va(! x6 | x8 | x8 | %194
 x8 | x2!8va)![K:bass] x6 | [G,,,G,,] z z2 z4 |{/D,E,} !>!=F,4 !tenuto!E, !tenuto!D,3 | x8 | %199
 x4!8vb(! x4!8vb)! | x8 | x8 | x8 | x8 | x8 | x8 | x8 | x8 | x8 | x8 | x8 | x8 | x8 | x8 | x8 | %215
 x8 | x8 | x8 | x8 | x8 ||[K:C] x8 | x8 | x8 | x8 | x8 | x8 | x8 | x8 | x8 | x8 | x8 | x8 | x8 | %233
 x8 | x8 | x8 | x8 | x21 | x8 || %239
[K:treble] x2[K:bass] x8!8vb(! (3F,,!8vb)!!8vb(!E,,!8vb)!!8vb(!D,,!8vb)! !fermata!D,4 | x8 | x8 | %242
 x8 | x8 ||[K:E][M:4/4][K:bass] x6 (!>![B,,E,G,B,]2- | %245
 [B,,E,G,B,]2 [C,E,G,C]2 [D,G,B,D]2 [E,G,B,E]2) | x8 | x8 | x8 | x8 | x8 | x8 | %252
 x6 (!>![B,,E,G,B,]2- | [B,,E,G,B,]2 [C,E,G,C]2 [D,G,B,D]2 [E,G,B,E]2) | x8 | x8 | x8 | x8 | x8 | %259
 x8 | x8 | x8 | x8 | x8 | x8 | x8 | [E,,,E,,]8 | [G,,,G,,]8 | [F,,,F,,]8- | [F,,,F,,]8 | %270
 [B,,,B,,]8- | [B,,,B,,]8 | [E,,,E,,]8- | [E,,,E,,]8 | [E,,,E,,]8 | [G,,,G,,]6 [=D,,=D,]2 | %276
 [C,,C,]8- | [C,,C,]8 | [G,,,G,,]8- | [G,,,G,,]8 | [F,,,F,,]8 | [A,,,A,,]8 | [G,,,G,,]8 | %283
 [!courtesy!^C,,!courtesy!^C,]8 | x8 | x8 | x8 | x8 | E,,8 | F,,8 | G,,8 | A,,4 B,,4 | C,8 | %293
 =D,4 E,4 | F,8 | =G,8 | A,8 | [A,^C^D]8 | x8 | x8 | x8 | x8 | x8 | x8 | x8 | x8 | x8 | x8 | x8 | %309
 x8 | x8 | x8 | x8 | x8 | x8 | x8 | x8 | x8 | x8 | x8 | x8 | x8 | x8 | x8 ||[K:A][M:2/4] x4 | x4 | %326
 x4 | x4 |: x4 | x4 | x4 | x4 :| x4 | x4 | x4 | x4 | x4 | x4 | x4 | x4 | x4 | x4 | x4 | x4 | x4 | %345
 x4 | x4 | x4 | x4 | x4 | x4 | x4 | x4 | x4 | x4 | x4 | C,,4 | C,,4 | C,,4 | =C,,4 | x4 | x4 | x4 | %363
 x4 |: x4 | x4 | x4 | x4 :|!8vb(! x4!8vb)! | x119/60[K:treble] x121/60 |[K:bass] x4 | x4 | x4 | %373
 x4 | x4 | x4 | x4 | x4 | x4 | x2 z/ (C,/^A,,/F,,/) | x4 | x4 | x4 | x4 | x4 | x4 | x4 | x4 | x4 | %389
 x4 | x4 | x4 | x4 | x4 ||[K:C] x4 | x4 | x4 | x4 | x4 | x4 | x4 | x4 | x4 | x4 | x4 | x4 | x4 | %407
 x4 | x4 | x4 ||[K:A] x4 | x4 | x4 | x4 | x4 | x4 ||[K:C] x4 | x4 | x4 | x4 | x4 | x4 | x4 | x4 | %424
 !>![E,,E,]!>![_E,,_E,] !>![D,,D,]!>![^C,,^C,] | x4 | x4 | x4 | x4 | x3 (_B,,/4_A,,/4G,,/4F,,/4) || %430
[K:Eb] x4 | x4 | x4 | x4 | x4 | x4 | x4 | x4 | x4 | x4 | x4 | x4 | x4 | x4 | x4 || %445
[K:Bb][M:4/4] x8 || %446
[K:Bb] z (9:8:9F,/8B,/8D/8"^rapido"x/8x/8x/8x/8x/8[I:staff -1]b/8 x2[I:staff +1] z4[K:treble] | %447
[K:bass] x8 | x8 |{/[B,,,B,,]} [B,,F,B,]8[K:treble] |[K:bass] x6[K:treble] x2 |[K:bass] x8 |] %452
V:6
 x8 | x8 | x8 | x8 | B, (!>![=G,=B,]2 [_A,C] [_B,D]) (!>![G,=B,]2 [A,C] | [_B,D]8) | %6
 z (!>![C=E]2 [_DF] [_EG]) (!>![C=E]2 [DF] | [_EG]8) | z (!>![FA]2 [_GB] [_Ac]) (!>![F=A]2 [GB] | %9
 !fermata![_Ac]8) | x8 | x8 | x8 | z4 z2 (3[G,B,][^G,=B,][A,C] | !fermata![B,_D]8 ||[K:Ab] x8 | %16
 x8 | x4 [=G,D]4 | (=c2 d2) (_e2 d2) | (=c2 _e2) d2[K:treble] x2 | z2 [bd']2 z2 [a_c']2 | x8 | %22
 x8 ||[K:A] (d2 ^d2) (e2 d2) | (=d2 e2) (^dcBA | (=G2) ^G2) (A2 G2) | (=G2 A2) (^GFED) | %27
 !>!=C6- CC/^C/ | !>!D8 || x8 | x8 | x8 | %32
 x (3[D^G]/[DG]/[DG]/ (3[DG]/[DG]/[DG]/ (3[DG]/[DG]/[DG]/ [DG]/[_D=G][=C^F]/- [CF]/[=B,=F]/[_B,E] | %33
 x (3:2:1!/![A,^D]3/2(3:2:1!/![A,D]3/2(3:2:1!/![A,D]3/2 [A,D]/[_A,=D][I:staff +1][=G,^C]/- [G,C]/.[^F,=C]/!^![=F,B,] | %34
 x8 | x8 | x8 |[I:staff -1] !arpeggio!E2 x2 =d4 | x8 | x6 [^G,B,]2 | %40
 [E,A,C]2 [E,A,C]2 [E,A,C]2 [E,A,C]2 | [E,A,C]2 [E,A,C]2 [E,B,D]2 [E,B,D]2 | !arpeggio!E2 x2 =d4 | %43
 x8 | x6 [^G,B,]2 | [E,A,C]2 [E,A,C]2 [E,A,C]2 [E,A,C]2 | [E,A,C]2 [E,A,C]2 [E,A,C]2 [E,A,C]2 | %47
 z A,3- A,4 | z A,3- A,4 | x8 | x8 | x4 [=B,_E]2 [B,D]2 | x8 | x8 |[K:bass] E,4 ^D,4 | =G,4 F,4 | %56
 x8 |[K:treble] ^A,4 =A,4 | ^C4 =C4 | =E4 ^D4 | x8 | x8 | x8 | x8 | x8 | x8 | x8 | x8 | x8 | x8 | %70
 x8 || x8 | x8 | x8 | x8 | x8 | x8 | x8 | x8 | [A,CE]2 .[A,CE]2 .[A,CE]2 .[A,CE]2 | x8 | %81
 E[I:staff +1]=F x2!8va(! x4!8va)! |[I:staff -1] =FA x2!8va(! x4!8va)! ||[K:C]!8va(! x2!8va)! x6 | %84
 x8 | x8 | x8 | x6!8va(! x2 | %88
 x2!8va)! [Gce]/[I:staff +1][^F^d]/[I:staff -1][Gce]/[I:staff +1][Fd]/[I:staff -1] [Gce]/[I:staff +1][Fd]/[I:staff -1][Gce]/[I:staff +1][Fd]/[I:staff -1] [Gce]/[I:staff +1][Fd]/[I:staff -1][Gce]/[I:staff +1][Fd]/ | %89
[I:staff -1] !>![Gce]/[I:staff +1][^F^d]/[I:staff -1][Gce]/[I:staff +1][Fd]/[I:staff -1] [Gce]/[I:staff +1][Fd]/[I:staff -1][Gce]/[I:staff +1][Fd]/[I:staff -1] [Gce]/[I:staff +1][Fd]/[I:staff -1][Gce]/[I:staff +1][Fd]/[I:staff -1] [Gce]/[I:staff +1][Fd]/[I:staff -1][Gce]/[I:staff +1][Fd]/ | %90
!8va(! x8 | x8 |[I:staff -1] z2!8va)! z (!>![_Bce] AG) x2 | x8 |!8va(! x8 | x8!8va)! | %96
 z2 z (!>![G_Bc] FE) x2 | x8 | x8 | x8 | x8 | x8 |!8va(! x8 | x8!8va)! | x8 | x8 | [=D_Ace]8- | %107
 [DAce]8 | x8 | x8 | [FA^c]8- | [FAc]8 | [FA]8- | [FA]3 z z2"^a tempo"!<(! (G/F/E/D/)!<)! | C x7 | %115
 x8 | x8 | x8 | x8 | x8 | x8 | x8 | x8 | x8 | x8 | x8 | x8 | x8 | x8 | x8 | x8 | x8 | x8 | x8 | %134
 x8 | x8 | x8 | x8 | x8 | x8 | x4 ^G/=A/^A/B/ =c/^c/ (3=d/^d/=e/ || %141
[K:G] x2 .[DGB].[DGB] x2 .[D^Fc].[DFc] | x2 .[DGB].[DGB] x2 .[DFc].[DFc] | x2 .[DGB].[DGB] x4 | %144
 x4 ([A,C]4 | .[G,B,]) x .[DGB].[DGB] x2 .[D^Fc].[DFc] | x2 .[DGB].[DGB] x2 .[DFc].[DFc] | %147
 x2 .[DGB].[DGB] x4 | x8 |!8va(! x8 | c>d _e/ed/ e/ed/ e/d/c | x8 | c>d _e/ed/ e/ed/ e/d/c!8va)! | %153
 x2 .[DGB].[DGB] x2 .[D^Fc].[DFc] | x2 .[DGB].[DGB] x2 .[DFc].[DFc] | x2 .[DGB].[DGB] x4 | x8 | %157
 =F2 ^F2 =G2 ^G2 | x8 | (=G4 ^G2 =AB) ||[K:A] x8 | x8 | x8 | x8 | x8 | x8 | x8 | x8 |!8va(! x8 | %169
 d>e =f/fe/ f/fe/ f/e/d | x8 | d>e =f/fe/ f/fe/ f/e/d!8va)! | x8 | x7!8va(! x | x8 | x8 | x8 | x8 | %178
 x4!8va)! x4 | x8 | x8 | !arpeggio!!>![F,=CF]8 | FAFD- D4 ||[K:G] x8 | x8 | x8 | x8 | x8 | x8 | %189
 x8 | x8 |!8va(! x8 | x8 | x8 | x8 | z2 !>!!fermata![_Ac_e=f]2 x3/2!8va)! x5/2 | x8 | x8 | x8 | %199
 x8 | x8 | x8 | x8 | [A,C_EG] z [A,CEG] z [A,DF] z [A,DF] z | x8 | x8 | x8 | x8 | x8 | x8 | x8 | %211
 x8 | x8 | x8 | x8 | x8 | x8 | x8 | x8 | x8 ||[K:C] x8 | x8 | x8 | x8 | x8 | x8 | x8 | x8 | x8 | %229
 x8 | x8 | x8 |!8va(! x8 | x8 | x8 | x8!8va)! | x8 | x23/2!8va(! x19/2 | x8 || x4!8va)! x12 | %240
 E^D=D[^C^E]- [CE][=C=E] [=B,^D]2 | _BA^G[=G=B]- [GB][^F^A] [=F=A]2 | %242
!8va(! =e^d=d[^c^e]- [ce][=c=e] [=B^d]2- | [Bd]4 x4!8va)! ||[K:E][M:4/4] x8 | x8 | %246
 (D=D C2) !tenuto!^D2 !tenuto!=D2 | (C^D =D2) !tenuto!C2 !tenuto!^D2 | %248
 (=DC ^D2) !tenuto!=D2 !tenuto!C2 | (^D=D C2) !tenuto!^D2 !tenuto!=D2 | %250
 (C^D =D2) !tenuto!C2 !tenuto!^D2 | (=DC ^D2) !tenuto!=D2 !tenuto!C2 | x8 | x8 | %254
 (F=F E2) !tenuto!^F2 !tenuto!=F2 | (E^F =F2) !tenuto!E2 !tenuto!^F2 | %256
 (=F=E ^F2) !tenuto!=F2 !tenuto!E2 | (^F=F E2) !tenuto!^F2 !tenuto!=F2 | x6 (3CDC | =C2 x6 | %260
 x6 (3^A,C=C | B,2 x6 | E8- | E6 E2 | _E8- | E8 | x8 | x8 | [F^Ad][FAd] [FAc]2 [FA^d]2 [FA=d]2 | %269
 [F^Ad][FAd] [FA=d]2 [FAc]2 [FA^d]2 | [^^F=A=d][FAc] [FA^d]2 [FA=d]2 [FAc]2 | %271
 [^^FA^d][FA=d] [FAc]2 [FA^d]2 [FA=d]2 | [GBc][GB^d] [GB=d]2 [GBc]2 [GB^d]2 | %273
 [GB=d][GBc] [GB^d]2 [GB=d]2 [GBc]2 | x8 | x8 | [Acf][Ac=f] [Ace]2 [Ac^f]2 [Ac=f]2 | %277
 [Ace][Ac^f] [Ac=f]2 [Ace]2 [Ac^f]2 | [B=f][Be] [B^f]2 [B=f]2 [Be]2 | %279
 [B^f][B=f] [Be]2 [B^f]2 [B=f]2 | !>![CEA]2 !>![DEB]2 !>![EAc]2 (3cdc | =c2 x6 | %282
 !>![B,EG]2 !>![^CEG]2 !>![DEG]2 (3^Ac=c | B2 x6 | x8 | x8 | x8 | x8 | D=D C2 ^D2 =D2 | %289
 C^D =D2 C^DE^E | F=F =E2 ^F2 =F2 | E^F =F2 E^FGA | B_B A2 =B2 _B2 | A=B _B2 A=Bc=d | %294
 e_e =d2 =e2 _e2 | =d=e _e2 d2 =e2 | _e=d =e2 _e2 d2 | g=g f2 ^g2 ^^f2 | %298
 z [GBe] z [AB^f] z [Beg] z [B,EG] | z [B,EG] z [CEG] z [!courtesy!^DGB] z [EGB] | [F^Aef]8- | %301
 [FAef]8 | [^^FB^^f]8- | [FBf]8 | [GBeg]8- | [GBeg]8 | z [GBe] z [AB^f] z [Beg] z [B,EG] | %307
 z [B,EG] z [CEG] z [!courtesy!^DGB] z [EGB] | [Aca]8- |!8va(! [ac'a']8!8va)! | [B=db]8- | %311
!8va(! [bd'b']8!8va)! | x6 (3cdc | =c2 x6 | x6 (3^Ac=c | B2 x6 | x8 | x8 | x8 | x8 | x8 | x8 | x8 | %323
 x8 ||[K:A][M:2/4] x4 | .c' z !fermata!z2 | x4 | .c z z2 |: x4 | x4 | x4 | x4 :| x4 | x4 | x4 | %335
 x4 | x4 | x4 | x4 | x4 | x4 | x4 | x4 | x4 | x4 | x4 | x4 | x4 | x4 | x4 | x4 | x4 | x4 | x4 | %354
 x4 | x4 | x4 | x4 | x4 | x4 | x4 | x4 | x4 | x4 |: x4 | x4 | x4 | x4 :| x4 | %369
[K:bass] x2[K:treble] x4/3!8va(! x2/3!8va)! |!8va(! x4 | x4!8va)! | x4 | x4 |!8va(! x4 | x4!8va)! | %376
 x4 | x4 | x2 [CF^Ac]!8va(![I:staff +1]!>![CF^Ac]-!8va)! | x4 |[I:staff -1] !>![G,^B,FG]4 | x4 | %382
 [B,C^EA]4 | x4 | !>![^A,C^F^A]4 | x4 | x2 [EAce]!8va(![I:staff +1]!>![EAce]-!8va)! | x4 | %388
[I:staff -1] !>![B,^DAB]4 | x4 | !>![=DEG^B]4 | x4 | !>![CE=Ac]4 | x4 ||[K:C] x4 | x4 | x4 | x4 | %398
 x4 | x4 | x4 | x4 | x4 | x4 | x4 | x4 |[K:bass] E,4 | ^D,4 | G,4 | ^F,4 ||[K:A][K:treble] x4 | %411
 x4 | ^A,4 | =A,4 | ^C4 | =C4 ||[K:C] E4 | ^D4 | x/3!8va(! x11/3 | x4 | x4 | x4 | x4 | x4!8va)! | %424
 x4 | x4 | x4 | x4 | x4 | x4 ||[K:Eb] x4 | x4 | x4 | x4 | x4 | x4 | x4 | x4 | x4 | %439
 x3!8va(! x!8va)! | x4 | x3!8va(! x!8va)! | x4 | x4 | x4 ||[K:Bb][M:4/4] x6!8va(! x2 || %446
[K:Bb] x (9:8:6x3/8 F/8A/8B/8d/8f/8!8va(! [b'b''] z x247/60 | x8 | x2!8va)! x5/2 !//!A x5/2 | %449
 [FBdf]8 | x8 |!8va(! x!8va)! x7 |] %452
V:7
 x8 | x8 | x8 | x8 | x8 | x8 | x8 | x8 | x8 | x8 | x8 | x8 | x4 G4- | x8 | x8 ||[K:Ab] x8 | x8 | %17
 x8 | x8 | x6[K:treble] x2 | x8 | x8 | x8 ||[K:A] x8 | x8 | x8 | x8 | x8 | x8 || x8 | x8 | x8 | %32
 x8 | x8 | x8 | x8 | x8 | !arpeggio!ce ^d2 x4 | x8 | x8 | x8 | x8 | !arpeggio!ce ^d2 x4 | x8 | x8 | %45
 x8 | x8 | x8 | x8 | x8 | x8 | x8 | x8 | x8 |[K:bass] x8 | x8 | x8 |[K:treble] x8 | x8 | x8 | x8 | %61
 x8 | x8 | x8 | x8 | x8 | x8 | x8 | x8 | x8 | x8 || x8 | x8 | x8 | x8 | x8 | x8 | x8 | x8 | x8 | %80
 x8 | x4!8va(! x4!8va)! | x4!8va(! x4!8va)! ||[K:C]!8va(! x2!8va)! x6 | x8 | x8 | x8 | %87
 x6!8va(! x2 | x2!8va)! x6 | x8 |!8va(! x8 | x8 | x2!8va)! x6 | x8 |!8va(! x8 | x8!8va)! | x8 | %97
 x8 | x8 | x8 | x8 | x8 |!8va(! x8 | x8!8va)! | x8 | x8 | x8 | x8 | x8 | x8 | x8 | x8 | d6 z2 | %113
 x8 | x8 | x8 | x8 | x8 | x8 | x8 | x8 | x8 | x8 | x8 | x8 | x8 | x8 | x8 | x8 | x8 | x8 | x8 | %132
 x8 | x8 | x8 | x8 | x8 | x8 | x8 | x8 | x8 ||[K:G] x8 | x8 | x8 | x8 | x8 | x8 | x8 | x8 | %149
!8va(! x8 | x8 | x8 | x8!8va)! | x8 | x8 | x8 | x8 | x8 | x8 | x8 ||[K:A] x8 | x8 | x8 | x8 | x8 | %165
 x8 | x8 | x8 |!8va(! x8 | x8 | x8 | x8!8va)! | x8 | x7!8va(! x | x8 | x8 | x8 | x8 | x4!8va)! x4 | %179
 x8 | x8 | x8 | x8 ||[K:G] x8 | x8 | x8 | x8 | x8 | x8 | x8 | x8 |!8va(! x8 | x8 | x8 | x8 | %195
 x11/2!8va)! x5/2 | x8 | x8 | x8 | x8 | x8 | x8 | x8 | x8 | x8 | x8 | x8 | x8 | x8 | x8 | x8 | x8 | %212
 x8 | x8 | x8 | x8 | x8 | x8 | x8 | x8 ||[K:C] x8 | x8 | x8 | x8 | x8 | x8 | x8 | x8 | x8 | x8 | %230
 x8 | x8 |!8va(! x8 | x8 | x8 | x8!8va)! | x8 | x23/2!8va(! x19/2 | x8 || x4!8va)! x12 | x8 | x8 | %242
!8va(! x8 | x8!8va)! ||[K:E][M:4/4] x8 | x8 | x8 | x8 | x8 | x8 | x8 | x8 | x8 | x8 | x8 | x8 | %256
 x8 | x8 | x8 | x8 | x8 | x8 | x8 | x8 | x8 | x8 | x8 | x8 | x8 | x8 | x8 | x8 | x8 | x8 | x8 | %275
 x8 | x8 | x8 | x8 | x8 | x8 | x8 | x8 | x8 | x8 | x8 | x8 | x8 | x8 | x8 | x8 | x8 | x8 | x8 | %294
 x8 | x8 | x8 | x8 | x8 | x8 | x8 | x!8va(! x2!8va)! x5 | x8 | x!8va(! x2!8va)! x5 | x8 | %305
 x!8va(! x2!8va)! x5 | x8 | x8 | x8 |!8va(! x3!8va)! x5 | x8 |!8va(! x3!8va)! x5 | x8 | x8 | x8 | %315
 x8 | x8 | x8 | x8 | x8 | x8 | x8 | x8 | x8 ||[K:A][M:2/4] x4 | x4 | x4 | x4 |: x4 | x4 | x4 | %331
 x4 :| x4 | x4 | x4 | x4 | x4 | x4 | x4 | x4 | x4 | x4 | x4 | x4 | x4 | x4 | x4 | x4 | x4 | x4 | %350
 x4 | x4 | x4 | x4 | x4 | x4 | x4 | x4 | x4 | x4 | x4 | x4 | x4 | x4 |: x4 | x4 | x4 | x4 :| x4 | %369
[K:bass] x2[K:treble] x4/3!8va(! x2/3!8va)! |!8va(! x4 | x4!8va)! | x4 | x4 |!8va(! x4 | x4!8va)! | %376
 x4 | x4 | x5/2!8va(! x3/2!8va)! | x4 | x4 | x4 | x4 | x4 | x4 | x4 | x5/2!8va(! x3/2!8va)! | x4 | %388
 x4 | x4 | x4 | x4 | x4 | x4 ||[K:C] x4 | x4 | x4 | x4 | x4 | x4 | x4 | x4 | x4 | x4 | x4 | x4 | %406
[K:bass] x4 | x4 | x4 | x4 ||[K:A][K:treble] x4 | x4 | x4 | x4 | x4 | x4 ||[K:C] x4 | x4 | %418
 x/3!8va(! x11/3 | x4 | x4 | x4 | x4 | x4!8va)! | x4 | x4 | x4 | x4 | x4 | x4 ||[K:Eb] x4 | x4 | %432
 x4 | x4 | x4 | x4 | x4 | x4 | x4 | x3!8va(! x!8va)! | x4 | x3!8va(! x!8va)! | x4 | x4 | x4 || %445
[K:Bb][M:4/4] x6!8va(! x2 ||[K:Bb] x91/48!8va(! x367/60 | x8 | x2!8va)! x6 | x/!8va(! x15/2!8va)! | %450
 x8 |!8va(! x!8va)! x7 |] %452
V:8
 x8 | x8 | x8 | x8 | x8 | x8 | x8 | x8 | x8 | x8 | x8 | x8 | x8 | x8 | x8 ||[K:Ab] x8 | x8 | x8 | %18
 x8 | x8 | x6[K:treble] x2 | x8 | x[K:bass] x7 ||[K:A] x8 | x8 | x8 | x8 | x8 | x8 || x8 | %30
!8vb(! x!8vb)! x7 |!8vb(! x8!8vb)! | x8 | x8 | x8 | x8 | x8 | x8 | x8 | x8 | x8 | x8 | x8 | x8 | %44
 x8 | x8 | x8 | x8 | x8 | x8 | x8 | x8 | x8 | x8 | x8 | x8 | %56
 x[K:treble] x3[K:bass] x3[K:treble] x |[K:bass] x8 | x8 | x8 | x[K:treble] x7 | %61
[K:bass] x[K:treble] x7 |[K:bass] x[K:treble] x3[K:bass] x3/2[K:treble] x5/2 | %63
[K:bass] x[K:treble] x3[K:bass] x3/2[K:treble] x5/2 |[K:bass] x8 | x8 | x8 | x[K:treble] x7 | %68
[K:bass] x8 | x8 | x8 || x8 | x8 | x8 | x8 | x8 | x8 | x8 | x8 | x8 | x8 | x8 | x8 ||[K:C] x8 | %84
 x8 | x8 | x8 | x8 | x2[K:treble] x6 | x8 |[K:bass] x8 | x8 | x8 | x8 | x8 | x8 | x8 | x8 | x8 | %99
 x8 | x8 | x8 | x8 | x8 | x8 | x8 | x8 | x8 | x8 | x8 | x8 | x8 | x8 | x8 | x8 | x8 | x8 | x8 | %118
 x8 | x8 | x8 | x8 | x8 | x8 | x8 | x8 | x8 | x8 | x8 | x8 | x8 | x8 | x8 | x8 | x8 | x8 | %136
 x6!8vb(! x2 | x8 | x8!8vb)! | x8 | x8 ||[K:G] x8 | x8 | x6[K:treble] x2 |[K:bass] x8 | x8 | x8 | %147
 x6[K:treble] x2 |[K:bass] x8 | x2[K:treble] x6 | x8 |[K:bass] x2[K:treble] x6 | x8 |[K:bass] x8 | %154
 x8 | x6[K:treble] x2 |[K:bass] x8 | x8 | x8 | x8 ||[K:A] x8 | x8 | x8 | x8 | x8 | x8 | x8 | x8 | %168
 x[K:treble] x7 | x8 |[K:bass] x[K:treble] x7 | x8 |[K:bass] x8 | x8 | x8 | x8 | x8 | x8 | x8 | %179
 x8 | x8 | x8 | x8 ||[K:G] x8 | x8 | x8 | x8 | x8 | x8 | x2[K:treble] x6 | x8 | x2!8va(! x6 | x8 | %193
 x8 | x8 | x2!8va)![K:bass] x6 | x8 | x8 | x8 | x4!8vb(! x4!8vb)! | x8 | x8 | x8 | x8 | x8 | x8 | %206
 x8 | x8 | x8 | x8 | x8 | x8 | x8 | x8 | x8 | x8 | x8 | x8 | x8 | x8 ||[K:C] x8 | x8 | x8 | x8 | %224
 x8 | x8 | x8 | x8 | x8 | x8 | x8 | x8 | x8 | x8 | x8 | x8 | x8 | x21 | x8 || %239
[K:treble] x2[K:bass] x8!8vb(! x2/3!8vb)!!8vb(! x2/3!8vb)!!8vb(! x2/3!8vb)! x4 | x8 | x8 | x8 | %243
 x8 ||[K:E][M:4/4][K:bass] x8 | x8 | x8 | x8 | x8 | x8 | x8 | x8 | x8 | x8 | x8 | x8 | x8 | x8 | %258
 x8 | x8 | x8 | x8 | x8 | x8 | x8 | x8 | x8 | x8 | x8 | x8 | x8 | x8 | x8 | x8 | x8 | x8 | x8 | %277
 x8 | x8 | x8 | x6 [E,A,]2- | x8 | x6 [D,G,]2- | x8 | x8 | x8 | x8 | x8 | x8 | x8 | x8 | x8 | x8 | %293
 x8 | x8 | x8 | x8 | x8 | x8 | x8 | x8 | x8 | x8 | x8 | x8 | x8 | x8 | x8 | x8 | x8 | x8 | x8 | %312
 x8 | x8 | x8 | x8 | x8 | x8 | x8 | x8 | x8 | x8 | x8 | x8 ||[K:A][M:2/4] x4 | x4 | x4 | x4 |: x4 | %329
 x4 | x4 | x4 :| x4 | x4 | x4 | x4 | x4 | x4 | x4 | x4 | x4 | x4 | x4 | x4 | x4 | x4 | x4 | x4 | %348
 x4 | x4 | x4 | x4 | x4 | x4 | x4 | x4 | z G,,2 G,, | z G,,2 G,, | z G,,2 G,,- | G,, G,,2 G,, | %360
 x4 | x4 | x4 | x4 |: x4 | x4 | x4 | x4 :|!8vb(! x4!8vb)! | x119/60[K:treble] x121/60 | %370
[K:bass] x4 | x4 | x4 | x4 | x4 | x4 | x4 | x4 | x4 | x4 | x4 | x4 | x4 | x4 | x4 | x4 | x4 | x4 | %388
 x4 | x4 | x4 | x4 | x4 | x4 ||[K:C] x4 | x4 | x4 | x4 | x4 | x4 | x4 | x4 | x4 | x4 | x4 | x4 | %406
 x4 | x4 | x4 | x4 ||[K:A] x4 | x4 | x4 | x4 | x4 | x4 ||[K:C] x4 | x4 | x4 | x4 | x4 | x4 | x4 | %423
 x4 | x4 | x4 | x4 | x4 | x4 | x4 ||[K:Eb] x4 | x4 | x4 | x4 | x4 | x4 | x4 | x4 | x4 | x4 | x4 | %441
 x4 | x4 | x4 | x4 ||[K:Bb][M:4/4] x8 ||[K:Bb] x14/3[K:treble] x107/32 |[K:bass] x8 | x8 | %449
 x/[K:treble] x15/2 |[K:bass] x6[K:treble] x2 |[K:bass] x8 |] %452

